!!!!SEGMENT: pl-cz--iii-460--003_kuci-mateusz--symfonia-f-presto.krn
!!!cenid: 17xx:941
!!!COM: Kuci, Mateusz
!!!COM-rismid: pe30017582
!!!CDT:
!!!CNT:
!!!OPR: Symfonia F
!!!OTL: Presto
!!!OMV: 003
!!!PDT:
!!!AGN: Secular
!!!SMS-siglum: PL-CZ
!!!SMS-shelfmark: III-460
!!!SMS-shelfwork: 001-003 M
!!!SMS-variant:
!!!SMS-altvar:
!!!NIFC-rismid: 300000666
!!!URL-scan: http://repozytorium.nifc.pl/skany/pl-cz-nut--iii-460
!!!ONB-nifc: UWAGA: części Symfonii: Allegro, Adagio, Presto
!!!key: F
**kern	**dynam	**kern	**dynam	**kern	**dynam	**kern	**dynam	**kern	**dynam	**kern	**dynam	**kern	**kern	**dynam	**kern	**dynam
*part9	*part9	*part8	*part8	*part7	*part7	*part6	*part6	*part5	*part5	*part4	*part4	*part3	*part2	*part2	*part1	*part1
*staff9	*	*staff8	*	*staff7	*	*staff6	*	*staff5	*	*staff4	*	*staff3	*staff2	*	*staff1	*
*Iempty	*	*Iviola	*	*Ivioln	*	*Ivioln	*	*Iempty	*	*Iempty	*	*Iempty	*Ioboe	*	*Ioboe	*
*I"Baſso	*	*I"Viola	*	*I"Violino Secondo	*	*I"Violino Primo	*	*I"Cornu Secondo Toni F.	*	*I"Cornu Primo Toni F.	*	*I"Fagotto Solo	*I"Oboe Secondo	*	*I"Oboe Primo	*
*I'B	*	*I'Vla	*	*I'Vl II	*	*I'Vl I	*	*I'Cor II in F	*	*I'Cor I in F	*	*I'Fag	*I'Ob II	*	*I'Ob I	*
*ICstr	*	*ICstr	*	*ICstr	*	*ICstr	*	*ICbras	*	*ICbras	*	*ICww	*ICww	*	*ICww	*
*clefF4	*	*clefC3	*	*clefG2	*	*clefG2	*	*clefG2	*	*clefG2	*	*clefF4	*clefG2	*	*clefG2	*
*	*	*	*	*	*	*	*	*ITrd4c7	*	*ITrd4c7	*	*	*	*	*	*
*k[b-]	*	*k[b-]	*	*k[b-]	*	*k[b-]	*	*k[b-]	*	*k[b-]	*	*k[b-]	*k[b-]	*	*k[b-]	*
*F:	*	*F:	*	*F:	*	*F:	*	*	*	*	*	*F:	*F:	*	*F:	*
*M2/4	*	*M2/4	*	*M2/4	*	*M2/4	*	*M2/4	*	*M2/4	*	*M2/4	*M2/4	*	*M2/4	*
=1	=1	=1	=1	=1	=1	=1	=1	=1	=1	=1	=1	=1	=1	=1	=1	=1
*2\right	*	*2\right	*	*2\right	*	*2\right	*	*2\right	*	*2\right	*	*2\right	*2\right	*	*2\right	*
*all\right	*	*all\right	*	*all\right	*	*all\right	*	*all\right	*	*all\right	*	*all\right	*all\right	*	*all\right	*
*	*	*tremolo	*	*	*	*	*	*	*	*	*	*	*	*	*	*
!	!	!	!	!	!	!	!	!	!	!	!	!	!	!	!LO:TX:t=P:problem=4,8,16\middle or right&colon; global	!
!	!	!	!	!	!	!	!	!LO:TX:a:t=Presto	!	!LO:TX:a:t=Presto	!	!	!	!	!	!
!LO:TX:t=P::problem=uwaga na skany&colon; nr 16 i 14	!	!	!	!	!	!	!	!LO:TX:a:t=16	!	!LO:TX:a:t=16	!	!	!LO:TX:a:t=Presto	!	!LO:TX:a:t=Presto	!
!LO:TX:a:t=Presto	!	!LO:TX:a:t=Presto	!	!LO:TX:a:t=Presto	!	!LO:TX:a:t=Presto	!	!LO:TX:a:t=Toni F.	!	!LO:TX:a:t=Toni F&colon;	!	!LO:TX:a:t=(Tacet)	!LO:TX:a:t=16	!	!LO:TX:a:t=16	!
!	!LO:DY:b:t=p&colon;	!	!	!	!LO:DY:b:t=p&colon;	!	!LO:DY:b:t=pia&colon;	!	!	!	!	!	!	!	!	!
4F\	p	8f\L	p	4.A/	p	4.f/	p	2r	.	2r	.	2ryy	2r	.	2r	.
.	.	8f\	.	.	.	.	.	.	.	.	.	.	.	.	.	.
4r	.	8f\	.	.	.	.	.	.	.	.	.	.	.	.	.	.
.	.	8f\J	.	8d/	.	8b-/	.	.	.	.	.	.	.	.	.	.
=2	=2	=2	=2	=2	=2	=2	=2	=2	=2	=2	=2	=2	=2	=2	=2	=2
!LO:TX:a:t=1	!	!	!	!	!	!	!	!	!	!	!	!	!	!	!	!
.	.	.	.	8qqe/	.	8qqcc/	.	.	.	.	.	.	.	.	.	.
2r	.	8f\L	.	8d/L	.	8b-\L	.	2r	.	2r	.	2ryy	2r	.	2r	.
.	.	8f\	.	8c/J	.	8a\J	.	.	.	.	.	.	.	.	.	.
.	.	8f\	.	4c/	.	4a/	.	.	.	.	.	.	.	.	.	.
.	.	8f\J	.	.	.	.	.	.	.	.	.	.	.	.	.	.
=3	=3	=3	=3	=3	=3	=3	=3	=3	=3	=3	=3	=3	=3	=3	=3	=3
4FF/	.	8f\L	.	4.A/	.	4.f/	.	2r	.	2r	.	2ryy	2r	.	2r	.
.	.	8f\	.	.	.	.	.	.	.	.	.	.	.	.	.	.
4r	.	8f\	.	.	.	.	.	.	.	.	.	.	.	.	.	.
.	.	8f\J	.	8b-\	.	8dd\	.	.	.	.	.	.	.	.	.	.
=4	=4	=4	=4	=4	=4	=4	=4	=4	=4	=4	=4	=4	=4	=4	=4	=4
!LO:TX:a:t=1	!	!	!	!	!	!	!	!	!	!	!	!	!	!	!	!
.	.	.	.	8qqcc/	.	8qqee/	.	.	.	.	.	.	.	.	.	.
2r	.	8f\L	.	8b-/L	.	8dd\L	.	2r	.	2r	.	2ryy	2r	.	2r	.
.	.	8f\	.	8a/J	.	8cc\J	.	.	.	.	.	.	.	.	.	.
.	.	8f\	.	4a/	.	4cc\	.	.	.	.	.	.	.	.	.	.
.	.	8f\J	.	.	.	.	.	.	.	.	.	.	.	.	.	.
=5	=5	=5	=5	=5	=5	=5	=5	=5	=5	=5	=5	=5	=5	=5	=5	=5
4AA/	.	4c\	p	8f/L	f	8ff|\L	f	2r	.	2r	.	2ryy	2r	.	2r	.
.	.	.	.	8f/	p	(8ff\	p	.	.	.	.	.	.	.	.	.
4r	.	4r	.	8e/	.	8ee\	.	.	.	.	.	.	.	.	.	.
.	.	.	.	8f/J	.	8ff\J)	.	.	.	.	.	.	.	.	.	.
=6	=6	=6	=6	=6	=6	=6	=6	=6	=6	=6	=6	=6	=6	=6	=6	=6
4BB-/	.	4f\	.	8d/L	f	8dd\L	f	2r	.	2r	.	2ryy	2r	.	2r	.
.	.	.	.	8d/	p	(8dd\	p	.	.	.	.	.	.	.	.	.
4r	.	4r	.	8c#X/	.	8cc#X\	.	.	.	.	.	.	.	.	.	.
.	.	.	.	8d/J	.	8dd\J)	.	.	.	.	.	.	.	.	.	.
=7	=7	=7	=7	=7	=7	=7	=7	=7	=7	=7	=7	=7	=7	=7	=7	=7
4D/	.	4d\	.	(2d/	.	8b-X/L	.	2r	.	2r	.	2ryy	2r	.	2r	.
.	.	.	.	.	.	8a/	.	.	.	.	.	.	.	.	.	.
(8BB-/L	.	(8B-X\L	.	.	.	8g/	.	.	.	.	.	.	.	.	.	.
8BBn/J)	.	8Bn\J)	.	.	.	8f/J	.	.	.	.	.	.	.	.	.	.
!	!	!	!	!	!	!LO:LB:g=original	!	!	!	!	!	!	!	!	!	!
=8	=8	=8	=8	=8	=8	=8	=8	=8	=8	=8	=8	=8	=8	=8	=8	=8
4C/	.	4c\	.	16c/LL)	.	(16e/LL	.	2r	.	2r	.	2ryy	2r	.	2r	.
.	.	.	.	16d/	.	16f/	.	.	.	.	.	.	.	.	.	.
.	.	.	.	16e/	.	16g/	.	.	.	.	.	.	.	.	.	.
.	.	.	.	16f/JJ	.	16a/JJ)	.	.	.	.	.	.	.	.	.	.
(16c\LL	.	4r	.	4e/	.	4g/	.	.	.	.	.	.	.	.	.	.
16B-X\	.	.	.	.	.	.	.	.	.	.	.	.	.	.	.	.
16A\	.	.	.	.	.	.	.	.	.	.	.	.	.	.	.	.
16G\JJ)	.	.	.	.	.	.	.	.	.	.	.	.	.	.	.	.
=9	=9	=9	=9	=9	=9	=9	=9	=9	=9	=9	=9	=9	=9	=9	=9	=9
4F\	.	8f\L	.	4.A/	.	4.f/	.	2r	.	2r	.	2ryy	2r	.	2r	.
.	.	8f\	.	.	.	.	.	.	.	.	.	.	.	.	.	.
4r	.	8f\	.	.	.	.	.	.	.	.	.	.	.	.	.	.
.	.	8f\J	.	8d/	.	8b-/	.	.	.	.	.	.	.	.	.	.
=10	=10	=10	=10	=10	=10	=10	=10	=10	=10	=10	=10	=10	=10	=10	=10	=10
!LO:TX:a:t=1	!	!	!	!	!	!	!	!	!	!	!	!	!	!	!	!
.	.	.	.	8qqe/	.	8qqcc/	.	.	.	.	.	.	.	.	.	.
2r	.	8f\L	.	8d/L	.	8b-/L	.	2r	.	2r	.	2ryy	2r	.	2r	.
.	.	8f\	.	8c/J	.	8a/J	.	.	.	.	.	.	.	.	.	.
.	.	8f\	.	4c/	.	4a/	.	.	.	.	.	.	.	.	.	.
.	.	8f\J	.	.	.	.	.	.	.	.	.	.	.	.	.	.
!LO:LB:g=original	!	!LO:LB:g=original	!	!LO:LB:g=original	!	!	!	!	!	!	!	!	!	!	!	!
=11	=11	=11	=11	=11	=11	=11	=11	=11	=11	=11	=11	=11	=11	=11	=11	=11
4FF/	.	8f\L	.	4.A/	.	4.f/	.	2r	.	2r	.	2ryy	2r	.	2r	.
.	.	8f\	.	.	.	.	.	.	.	.	.	.	.	.	.	.
4r	.	8f\	.	.	.	.	.	.	.	.	.	.	.	.	.	.
.	.	8f\J	.	8b-\	.	8dd\	.	.	.	.	.	.	.	.	.	.
=12	=12	=12	=12	=12	=12	=12	=12	=12	=12	=12	=12	=12	=12	=12	=12	=12
!LO:TX:a:t=1	!	!	!	!	!	!	!	!	!	!	!	!	!	!	!	!
.	.	.	.	8qqcc/	.	8qqee/	.	.	.	.	.	.	.	.	.	.
2r	.	8f\L	.	8b-\L	.	8dd\L	.	2r	.	2r	.	2ryy	2r	.	2r	.
.	.	8f\	.	8a\J	.	8cc\J	.	.	.	.	.	.	.	.	.	.
.	.	8f\	.	4a\	.	4cc\	.	.	.	.	.	.	.	.	.	.
.	.	8f\J	.	.	.	.	.	.	.	.	.	.	.	.	.	.
=13	=13	=13	=13	=13	=13	=13	=13	=13	=13	=13	=13	=13	=13	=13	=13	=13
4AA/	.	4c\	.	8f/L	f	8ff|\L	f	2r	.	2r	.	2ryy	2r	.	2r	.
.	.	.	.	8f/	p	(8ff\	p	.	.	.	.	.	.	.	.	.
4r	.	4r	.	8e/	.	8ee\	.	.	.	.	.	.	.	.	.	.
.	.	.	.	8f/J	.	8ff\J)	.	.	.	.	.	.	.	.	.	.
=14	=14	=14	=14	=14	=14	=14	=14	=14	=14	=14	=14	=14	=14	=14	=14	=14
!	!	!	!	!LO:TX:t=P:problem=mixed beam	!	!	!	!	!	!	!	!	!	!	!	!
4BB-/	.	4f\	.	8d/L	f	8dd|\L	f	2r	.	2r	.	2ryy	2r	.	2r	.
.	.	.	.	(8b-\	p	(8dd\	p	.	.	.	.	.	.	.	.	.
4r	.	4r	.	8a\	.	8cc\	.	.	.	.	.	.	.	.	.	.
.	.	.	.	8g\J)	.	8b-\J)	.	.	.	.	.	.	.	.	.	.
=15	=15	=15	=15	=15	=15	=15	=15	=15	=15	=15	=15	=15	=15	=15	=15	=15
.	.	.	.	8qqd/	.	8qqb-/	.	.	.	.	.	.	.	.	.	.
4C/	.	4c\	.	8c/L	.	8a/L	.	2r	.	2r	.	2ryy	2r	.	2r	.
.	.	.	.	16B-/L	.	16g/L	.	.	.	.	.	.	.	.	.	.
.	.	.	.	16A/JJ	.	16f/JJ	.	.	.	.	.	.	.	.	.	.
4CC/	.	4C/	.	16G/LL	.	16e/LL	.	.	.	.	.	.	.	.	.	.
.	.	.	.	16A/	.	16f/	.	.	.	.	.	.	.	.	.	.
.	.	.	.	16B-/	.	16g/	.	.	.	.	.	.	.	.	.	.
.	.	.	.	16G/JJ	.	16e/JJ	.	.	.	.	.	.	.	.	.	.
=16	=16	=16	=16	=16	=16	=16	=16	=16	=16	=16	=16	=16	=16	=16	=16	=16
!LO:TX:t=P:problem=mixed beam	!	!LO:TX:t=P:problem=mixed beam	!	!	!	!	!	!	!	!	!	!	!	!	!	!
8FF/L	.	8F/L	.	4A/	.	4f/	.	2r	.	2r	.	2ryy	2r	.	2r	.
8F\	.	8f\	.	.	.	.	.	.	.	.	.	.	.	.	.	.
8C\	.	8c\	.	4c/	.	4f/	.	.	.	.	.	.	.	.	.	.
8AA\J	.	8A\J	.	.	.	.	.	.	.	.	.	.	.	.	.	.
!	!	!	!	!	!	!LO:LB:g=original	!	!	!	!	!	!	!	!	!	!
=17	=17	=17	=17	=17	=17	=17	=17	=17	=17	=17	=17	=17	=17	=17	=17	=17
*	*	*	*	*^	*	*	*	*	*	*	*	*	*	*	*	*
!LO:TX:t=P:problem=mixed beam	!LO:DY:b:t=fortiſ	!LO:TX:t=P:problem=mixed beam	!LO:DY:b:t=for	!	!	!LO:DY:b:t=fortiſ.	!	!LO:DY:b:t=fortiſ	!	!LO:DY:b:t=for	!	!LO:DY:b:t=for	!	!	!LO:DY:b:t=for	!	!LO:DY:b:t=for
8FF/L	ff	8F/L	f	4.a/	4.f\	ff	4.ff\	ff	4F/	f	4f\	f	2ryy	4.a/	f	4.ff\	f
8F\	.	8f\	.	.	.	.	.	.	.	.	.	.	.	.	.	.	.
8F\	.	8f\	.	.	.	.	.	.	8.F/L	.	8.f\L	.	.	.	.	.	.
8F\J	.	8f\J	.	8dd\	8ryy	.	8bb-\	.	.	.	.	.	.	8dd\	.	8bb-\	.
.	.	.	.	.	.	.	.	.	16F/Jk	.	16f\Jk	.	.	.	.	.	.
*	*	*	*	*v	*v	*	*	*	*	*	*	*	*	*	*	*	*
=18	=18	=18	=18	=18	=18	=18	=18	=18	=18	=18	=18	=18	=18	=18	=18	=18
.	.	.	.	8qqee/	.	8qqccc/	.	.	.	.	.	.	8qqee/	.	8qqccc/	.
8F\L	.	8f\L	.	8dd\L	.	8bb-\L	.	4F/	.	4f\	.	2ryy	8dd\L	.	8bb-\L	.
8F\	.	8f\	.	8cc\J	.	8aa\J	.	.	.	.	.	.	8cc\J	.	8aa\J	.
8F\	.	8f\	.	4cc\	.	4aa\	.	4r	.	4r	.	.	4cc\	.	4aa\	.
8F\J	.	8f\J	.	.	.	.	.	.	.	.	.	.	.	.	.	.
=19	=19	=19	=19	=19	=19	=19	=19	=19	=19	=19	=19	=19	=19	=19	=19	=19
*	*	*	*	*^	*	*	*	*	*	*	*	*	*	*	*	*
8F\L	.	8f\L	.	4.a/	4.f\	.	4.ff\	.	4F/	.	4f\	.	2ryy	4.a/	.	4.ff\	.
8F\	.	8f\	.	.	.	.	.	.	.	.	.	.	.	.	.	.	.
8F\	.	8f\	.	.	.	.	.	.	8.F/L	.	8.f\L	.	.	.	.	.	.
8F\J	.	8f\J	.	8bb-\	8ryy	.	8ddd\	.	.	.	.	.	.	8bb-\	.	8ddd\	.
.	.	.	.	.	.	.	.	.	16F/Jk	.	16f\Jk	.	.	.	.	.	.
*	*	*	*	*v	*v	*	*	*	*	*	*	*	*	*	*	*	*
=20	=20	=20	=20	=20	=20	=20	=20	=20	=20	=20	=20	=20	=20	=20	=20	=20
*tremolo	*	*	*	*	*	*	*	*	*	*	*	*	*	*	*	*
.	.	.	.	8qqccc/	.	.	.	.	.	.	.	.	.	.	.	.
8F\L	.	8f\L	.	8bb-\L	.	8ddd\L	.	4F/	.	4f\	.	2ryy	8bb-\L	.	8ddd\L	.
8F\	.	8f\	.	8aa\J	.	8ccc\J	.	.	.	.	.	.	8aa\J	.	8ccc\J	.
8F\	.	8f\	.	4aa\	.	4ccc\	.	4r	.	4r	.	.	4aa\	.	4ccc\	.
8F\J	.	8f\J	.	.	.	.	.	.	.	.	.	.	.	.	.	.
!LO:LB:g=original	!	!LO:LB:g=original	!	!LO:LB:g=original	!	!	!	!	!	!	!	!	!	!	!	!
=21	=21	=21	=21	=21	=21	=21	=21	=21	=21	=21	=21	=21	=21	=21	=21	=21
*	*	*	*	*2\right	*	*	*	*	*	*	*	*	*	*	*	*
*	*	*	*	*tremolo	*	*	*	*	*	*2\right	*	*	*	*	*2\right	*
4F\	.	4cc\	.	16aa\LL	.	16ccc\LL	.	[2F/	.	[<2f\	.	2ryy	[2a/	.	[2ff\	.
.	.	.	.	16aa\	.	16ccc\	.	.	.	.	.	.	.	.	.	.
.	.	.	.	16aa\	.	16ccc\	.	.	.	.	.	.	.	.	.	.
.	.	.	.	16aa\	.	16ccc\JJ	.	.	.	.	.	.	.	.	.	.
4A\	.	8.a\L	.	16aa\	.	16ccc\LL	.	.	.	.	.	.	.	.	.	.
.	.	.	.	16aa\	.	16ccc\	.	.	.	.	.	.	.	.	.	.
.	.	.	.	16aa\	.	16ccc\	.	.	.	.	.	.	.	.	.	.
.	.	16f\Jk	.	16aa\JJ	.	16ccc\JJ	.	.	.	.	.	.	.	.	.	.
=22	=22	=22	=22	=22	=22	=22	=22	=22	=22	=22	=22	=22	=22	=22	=22	=22
*	*	*	*	*	*	*2\right	*	*	*	*	*	*	*	*	*	*
*	*	*	*	*	*	*tremolo	*	*	*	*	*	*	*2\right	*	*	*
4c\	.	4c/	.	16aa\LL	.	16ccc\LL	.	(2F/]	.	(<2f\]	.	2ryy	2a/]	.	2ff\]	.
.	.	.	.	16aa\	.	16ccc\	.	.	.	.	.	.	.	.	.	.
.	.	.	.	16aa\	.	16ccc\	.	.	.	.	.	.	.	.	.	.
.	.	.	.	16aa\	.	16ccc\	.	.	.	.	.	.	.	.	.	.
4r	.	4r	.	16aa\	.	16ccc\	.	.	.	.	.	.	.	.	.	.
.	.	.	.	16aa\	.	16ccc\	.	.	.	.	.	.	.	.	.	.
.	.	.	.	16aa\	.	16ccc\	.	.	.	.	.	.	.	.	.	.
.	.	.	.	16aa\JJ	.	16ccc\JJ	.	.	.	.	.	.	.	.	.	.
=23	=23	=23	=23	=23	=23	=23	=23	=23	=23	=23	=23	=23	=23	=23	=23	=23
4E\	.	4b-X\	.	16gg\LL	.	16bb-\LL	.	[2c/)	.	[<2g\)	.	2ryy	2cc\	.	[<2gg\	.
.	.	.	.	16gg\	.	16bb-\	.	.	.	.	.	.	.	.	.	.
.	.	.	.	16gg\	.	16bb-\	.	.	.	.	.	.	.	.	.	.
.	.	.	.	16gg\	.	16bb-\	.	.	.	.	.	.	.	.	.	.
4G\	.	8.g\L	.	16gg\	.	16bb-\	.	.	.	.	.	.	.	.	.	.
.	.	.	.	16gg\	.	16bb-\	.	.	.	.	.	.	.	.	.	.
.	.	.	.	16gg\	.	16bb-\	.	.	.	.	.	.	.	.	.	.
.	.	16e\Jk	.	16gg\JJ	.	16bb-\JJ	.	.	.	.	.	.	.	.	.	.
=24	=24	=24	=24	=24	=24	=24	=24	=24	=24	=24	=24	=24	=24	=24	=24	=24
4c\	.	4c/	.	16gg\LL	.	16bb-\LL	.	(2c/]	.	(2g\]	.	2ryy	2cc\	.	2gg\]	.
.	.	.	.	16gg\	.	16bb-\	.	.	.	.	.	.	.	.	.	.
.	.	.	.	16gg\	.	16bb-\	.	.	.	.	.	.	.	.	.	.
.	.	.	.	16gg\	.	16bb-\	.	.	.	.	.	.	.	.	.	.
4r	.	4r	.	16gg\	.	16bb-\	.	.	.	.	.	.	.	.	.	.
.	.	.	.	16gg\	.	16bb-\	.	.	.	.	.	.	.	.	.	.
.	.	.	.	16gg\	.	16bb-\	.	.	.	.	.	.	.	.	.	.
.	.	.	.	16gg\JJ	.	16bb-\JJ	.	.	.	.	.	.	.	.	.	.
!	!	!	!	!	!	!LO:LB:g=original	!	!LO:LB:g=original	!	!	!	!	!	!	!	!
=25	=25	=25	=25	=25	=25	=25	=25	=25	=25	=25	=25	=25	=25	=25	=25	=25
*Xtremolo	*	*	*	*	*	*	*	*	*	*	*	*	*	*	*	*
8F\L	.	8f\L	.	16ff\LL	.	4aa\	.	4F/)	.	4f\)	.	2ryy	4ff\	.	4aa\	.
.	.	.	.	16ff\	.	.	.	.	.	.	.	.	.	.	.	.
8F\	.	8f\	.	16ff\	.	.	.	.	.	.	.	.	.	.	.	.
.	.	.	.	16ff\	.	.	.	.	.	.	.	.	.	.	.	.
8F\	.	8f\	.	16ff\	.	16ff\LL	.	4r	.	4r	.	.	4r	.	4r	.
.	.	.	.	16ff\	.	16gg\	.	.	.	.	.	.	.	.	.	.
8F\J	.	8f\J	.	16ff\	.	16aa\	.	.	.	.	.	.	.	.	.	.
.	.	.	.	16ff\JJ	.	16gg\JJ	.	.	.	.	.	.	.	.	.	.
!	!	!	!	!	!	!	!	!	!	!LO:LB:g=original	!	!	!	!	!LO:LB:g=original	!
=26	=26	=26	=26	=26	=26	=26	=26	=26	=26	=26	=26	=26	=26	=26	=26	=26
*tremolo	*	*	*	*	*	*	*	*	*	*	*	*	*	*	*	*
8E\L	.	8e\L	.	16ff\LL	.	4ff\	.	8r	.	8r	.	2ryy	2a/	.	[<2ff\	.
.	.	.	.	16ff\	.	.	.	.	.	.	.	.	.	.	.	.
8E\	.	8e\	.	16ff\	.	.	.	8F/L	.	8f\L	.	.	.	.	.	.
.	.	.	.	16ff\	.	.	.	.	.	.	.	.	.	.	.	.
8E\	.	8e\	.	16ff\	.	4r	.	8F/	.	8f\	.	.	.	.	.	.
.	.	.	.	16ff\	.	.	.	.	.	.	.	.	.	.	.	.
8E\J	.	8e\J	.	16ff\	.	.	.	8F/J	.	8f\J	.	.	.	.	.	.
.	.	.	.	16ff\JJ	.	.	.	.	.	.	.	.	.	.	.	.
=27	=27	=27	=27	=27	=27	=27	=27	=27	=27	=27	=27	=27	=27	=27	=27	=27
8D\L	.	8d\L	.	16ff\LL	.	4ff\	.	4F/	.	4f\	.	2ryy	4a/	.	4ff\]	.
.	.	.	.	16ff\	.	.	.	.	.	.	.	.	.	.	.	.
8D\	.	8d\	.	16ff\	.	.	.	.	.	.	.	.	.	.	.	.
.	.	.	.	16ff\	.	.	.	.	.	.	.	.	.	.	.	.
8D\	.	8d\	.	16ff\	.	16ff\LL	.	4r	.	4r	.	.	4r	.	4r	.
.	.	.	.	16ff\	.	16gg\	.	.	.	.	.	.	.	.	.	.
8D\J	.	8d\J	.	16ff\	.	16aa\	.	.	.	.	.	.	.	.	.	.
.	.	.	.	16ff\JJ	.	16gg\JJ	.	.	.	.	.	.	.	.	.	.
!	!	!	!	!	!	!	!	!	!	!	!	!	!LO:LB:g=original	!	!	!
=28	=28	=28	=28	=28	=28	=28	=28	=28	=28	=28	=28	=28	=28	=28	=28	=28
8C/L	.	8c\L	.	16ff\LL	.	4ff\	.	8r	.	8r	.	2ryy	[2f/	.	[<2ff\	.
.	.	.	.	16ff\	.	.	.	.	.	.	.	.	.	.	.	.
8C/	.	8c\	.	16ff\	.	.	.	8F/L	.	8f\L	.	.	.	.	.	.
.	.	.	.	16ff\	.	.	.	.	.	.	.	.	.	.	.	.
8C/	.	8c\	.	16ff\	.	4r	.	8F/	.	8f\	.	.	.	.	.	.
.	.	.	.	16ff\	.	.	.	.	.	.	.	.	.	.	.	.
8C/J	.	8c\J	.	16ff\	.	.	.	8F/J	.	8f\J	.	.	.	.	.	.
.	.	.	.	16ff\JJ	.	.	.	.	.	.	.	.	.	.	.	.
=29	=29	=29	=29	=29	=29	=29	=29	=29	=29	=29	=29	=29	=29	=29	=29	=29
!	!	!	!LO:DY:b:t=p&colon;	!LO:TX:t=P:problem=mixed beam	!	!	!	!	!	!	!	!	!	!	!	!
(2BBn/	p	(2Bn/	p	8ff\L	.	8r	.	4F/	.	4f\	.	2ryy	4f/]	.	4ff\]	.
*	*	*	*	*	*	*Xtremolo	*	*	*	*	*	*	*	*	*	*
!	!	!	!	!	!LO:DY:b:t=pia	!	!LO:DY:b:t=pia	!	!	!	!	!	!	!	!	!
.	.	.	.	(8a/	p	(8aa\L	p	.	.	.	.	.	.	.	.	.
.	.	.	.	8g/	.	8gg\	.	4r	.	4r	.	.	4r	.	4r	.
.	.	.	.	8a/J)	.	8aa\J)	.	.	.	.	.	.	.	.	.	.
=30	=30	=30	=30	=30	=30	=30	=30	=30	=30	=30	=30	=30	=30	=30	=30	=30
*	*	*	*	*Xtremolo	*	*	*	*	*	*	*	*	*	*	*	*
!	!	!	!	!	!	!	!	!LO:TX:a:t=5	!	!LO:TX:a:t=5	!	!	!LO:TX:a:t=5	!	!LO:TX:a:t=5	!
2B-\)	.	2d\)	.	(8a/L	.	8aa\L	.	2r	.	2r	.	2ryy	2r	.	2r	.
.	.	.	.	8g/	.	8gg\	.	.	.	.	.	.	.	.	.	.
.	.	.	.	8g/	.	8gg\	.	.	.	.	.	.	.	.	.	.
.	.	.	.	8f/J)	.	8ff\J	.	.	.	.	.	.	.	.	.	.
=31	=31	=31	=31	=31	=31	=31	=31	=31	=31	=31	=31	=31	=31	=31	=31	=31
4c\	.	4c/	.	(8e/L	.	(8ee\L	.	2r	.	2r	.	2ryy	2r	.	2r	.
.	.	.	.	8f/	.	8ff\	.	.	.	.	.	.	.	.	.	.
4r	.	4r	.	8f#X/	.	8ff#X\	.	.	.	.	.	.	.	.	.	.
.	.	.	.	8g/J)	.	8gg\J)	.	.	.	.	.	.	.	.	.	.
!	!	!LO:LB:g=original	!	!	!	!	!	!	!	!	!	!	!	!	!	!
=32	=32	=32	=32	=32	=32	=32	=32	=32	=32	=32	=32	=32	=32	=32	=32	=32
!LO:TX:a:t=1	!	!LO:TX:a:t=1	!	!	!	!	!	!	!	!	!	!	!	!	!	!
2r	.	2r	.	8fn/L	.	8ffn\L	.	2r	.	2r	.	2ryy	2r	.	2r	.
.	.	.	.	8e/	.	8ee\	.	.	.	.	.	.	.	.	.	.
.	.	.	.	8d/	.	8dd\	.	.	.	.	.	.	.	.	.	.
.	.	.	.	8c/J	.	8cc\J	.	.	.	.	.	.	.	.	.	.
!LO:LB:g=original	!	!	!	!	!	!LO:LB:g=original	!	!	!	!	!	!	!	!	!	!
=33	=33	=33	=33	=33	=33	=33	=33	=33	=33	=33	=33	=33	=33	=33	=33	=33
(2BBn/	.	(2Bn/	.	8r	.	8r	.	2r	.	2r	.	2ryy	2r	.	2r	.
.	.	.	.	(8a/L	.	(8aa\L	.	.	.	.	.	.	.	.	.	.
.	.	.	.	8g#X/	.	8gg#X\	.	.	.	.	.	.	.	.	.	.
.	.	.	.	8a/J)	.	8aa\J)	.	.	.	.	.	.	.	.	.	.
!	!	!	!	!LO:LB:g=original	!	!	!	!	!	!	!	!	!	!	!	!
=34	=34	=34	=34	=34	=34	=34	=34	=34	=34	=34	=34	=34	=34	=34	=34	=34
2B-\)	.	2d/)	.	(8a/L	.	8aa\L	.	2r	.	2r	.	2ryy	2r	.	2r	.
.	.	.	.	8gn/)	.	8ggn\	.	.	.	.	.	.	.	.	.	.
.	.	.	.	8g/	.	8gg\	.	.	.	.	.	.	.	.	.	.
.	.	.	.	8f/J	.	8ff\J	.	.	.	.	.	.	.	.	.	.
=35	=35	=35	=35	=35	=35	=35	=35	=35	=35	=35	=35	=35	=35	=35	=35	=35
!	!	!	!	!LO:TX:t=P:problem=mixed beam	!	!	!LO:DY:b:t=forte	!	!	!	!	!	!	!	!	!
4c\	.	4c\	.	16e/LL	.	16ee\LL	f	4r	.	4r	.	2ryy	4r	.	4r	.
!	!	!	!	!	!LO:DY:b:t=for	!	!	!	!	!	!	!	!	!	!	!
.	.	.	.	16ee\	f	16ccc\	.	.	.	.	.	.	.	.	.	.
.	.	.	.	16ee\	.	16ccc\	.	.	.	.	.	.	.	.	.	.
.	.	.	.	16ee\JJ	.	16ccc\JJ	.	.	.	.	.	.	.	.	.	.
*	*	*	*	*tremolo	*	*tremolo	*	*	*	*	*	*	*	*	*	*
8r	.	8r	.	16ee\LL	.	16ccc\LL	.	4c/	.	4cc\	.	.	4ee\	.	4ccc\	.
.	.	.	.	16ee\	.	16ccc\	.	.	.	.	.	.	.	.	.	.
!	!LO:DY:b:t=for	!	!LO:DY:b:t=for	!	!	!	!	!	!	!	!	!	!	!	!	!
8C/	f	8c\	f	16ee\	.	16ccc\	.	.	.	.	.	.	.	.	.	.
.	.	.	.	16ee\JJ	.	16ccc\JJ	.	.	.	.	.	.	.	.	.	.
=36	=36	=36	=36	=36	=36	=36	=36	=36	=36	=36	=36	=36	=36	=36	=36	=36
8c\L	.	8cc\L	.	16ee\LL	.	16ccc\LL	.	4c/	.	4cc\	.	2ryy	4ee\	.	4ccc\	.
.	.	.	.	16ee\	.	16ccc\	.	.	.	.	.	.	.	.	.	.
8Bn\	.	8bny\	.	16ee\	.	16ccc\	.	.	.	.	.	.	.	.	.	.
.	.	.	.	16ee\	.	16ccc\	.	.	.	.	.	.	.	.	.	.
8A\	.	8a\	.	16ee\	.	16ccc\	.	4r	.	4r	.	.	4r	.	4r	.
.	.	.	.	16ee\	.	16ccc\	.	.	.	.	.	.	.	.	.	.
8G#X\J	.	8g#X\J	.	16ee\	.	16ccc\	.	.	.	.	.	.	.	.	.	.
.	.	.	.	16ee\JJ	.	16ccc\JJ	.	.	.	.	.	.	.	.	.	.
=37	=37	=37	=37	=37|:	=37	=37	=37	=37	=37	=37	=37	=37	=37	=37	=37	=37
!	!	!	!	!LO:TX:t=P:problem=fragment oznaczony znakiem repetycji	!	!	!	!	!	!	!	!	!	!	!	!
4A\	.	4a\	.	16ee\LL	.	16ccc\LL	.	[2c/	.	[<2cc\	.	2ryy	[<2ee\	.	[2ccc\	.
.	.	.	.	16ee\	.	16ccc\	.	.	.	.	.	.	.	.	.	.
.	.	.	.	16ee\	.	16ccc\	.	.	.	.	.	.	.	.	.	.
.	.	.	.	16ee\	.	16ccc\	.	.	.	.	.	.	.	.	.	.
8r	.	8r	.	16ee\	.	16ccc\	.	.	.	.	.	.	.	.	.	.
.	.	.	.	16ee\	.	16ccc\	.	.	.	.	.	.	.	.	.	.
8AA/	.	8A/	.	16ee\	.	16ccc\	.	.	.	.	.	.	.	.	.	.
.	.	.	.	16ee\JJ	.	16ccc\JJ	.	.	.	.	.	.	.	.	.	.
=38	=38	=38	=38	=38:|	=38	=38	=38	=38	=38	=38	=38	=38	=38	=38	=38	=38
8A\L	.	8a\L	.	16ee\LL	.	16ccc\LL	.	4c/]	.	4cc\]	.	2ryy	4ee\]	.	4ccc\]	.
.	.	.	.	16ee\	.	16ccc\	.	.	.	.	.	.	.	.	.	.
8G\	.	8gn\	.	16ee\	.	16ccc\	.	.	.	.	.	.	.	.	.	.
.	.	.	.	16ee\	.	16ccc\	.	.	.	.	.	.	.	.	.	.
8F\	.	8f\	.	16ee\	.	16ccc\	.	4r	.	4r	.	.	4r	.	4r	.
.	.	.	.	16ee\	.	16ccc\	.	.	.	.	.	.	.	.	.	.
8E\J	.	8e\J	.	16ee\	.	16ccc\	.	.	.	.	.	.	.	.	.	.
.	.	.	.	16ee\JJ	.	16ccc\JJ	.	.	.	.	.	.	.	.	.	.
!	!	!	!	!	!	!	!	!LO:LB:g=original	!	!	!	!	!	!	!	!
=39	=39	=39	=39	=39	=39	=39	=39	=39	=39	=39	=39	=39	=39	=39	=39	=39
!	!	!	!	!	!	!	!LO:DY:b:t=fortiſsimo	!LO:TX:a:t=2	!	!LO:TX:a:t=2	!	!	!	!	!	!
(<2F\	.	2f\	.	16dd\LL	.	16ccc\LL	ff	2r	.	2r	.	2ryy	[<2dd\	.	[<2ccc\	.
.	.	.	.	16dd\	.	16ccc\	.	.	.	.	.	.	.	.	.	.
.	.	.	.	16dd\	.	16ccc\	.	.	.	.	.	.	.	.	.	.
.	.	.	.	16dd\	.	16ccc\JJ	.	.	.	.	.	.	.	.	.	.
.	.	.	.	16dd\	.	16ccc\LL	.	.	.	.	.	.	.	.	.	.
.	.	.	.	16dd\	.	16ccc\	.	.	.	.	.	.	.	.	.	.
.	.	.	.	16dd\	.	16ccc\	.	.	.	.	.	.	.	.	.	.
.	.	.	.	16dd\JJ	.	16ccc\JJ	.	.	.	.	.	.	.	.	.	.
=40	=40	=40	=40	=40	=40	=40	=40	=40	=40	=40	=40	=40	=40	=40	=40	=40
2F#X\)	.	2a\	.	16dd\LL	.	16ccc\LL	.	2r	.	2r	.	2ryy	2dd\]	.	2ccc\]	.
.	.	.	.	16dd\	.	16ccc\	.	.	.	.	.	.	.	.	.	.
.	.	.	.	16dd\	.	16ccc\	.	.	.	.	.	.	.	.	.	.
.	.	.	.	16dd\	.	16ccc\	.	.	.	.	.	.	.	.	.	.
.	.	.	.	16dd\	.	16ccc\	.	.	.	.	.	.	.	.	.	.
.	.	.	.	16dd\	.	16ccc\	.	.	.	.	.	.	.	.	.	.
.	.	.	.	16dd\	.	16ccc\	.	.	.	.	.	.	.	.	.	.
.	.	.	.	16dd\JJ	.	16ccc\JJ	.	.	.	.	.	.	.	.	.	.
!	!	!	!	!	!	!LO:LB:g=original	!	!	!	!	!	!	!	!	!	!
=41	=41	=41	=41	=41	=41	=41	=41	=41	=41	=41	=41	=41	=41	=41	=41	=41
*	*	*	*	*	*	*	*	*2\right	*	*	*	*	*	*	*	*
8G\L	.	8g\L	.	16dd\LL	.	16bbn\LL	.	[2g\	.	[<2g\	.	2ryy	4dd\	.	4bbn\	.
.	.	.	.	16dd\	.	16bbn\	.	.	.	.	.	.	.	.	.	.
8G\	.	8g\	.	16dd\	.	16bbn\	.	.	.	.	.	.	.	.	.	.
.	.	.	.	16dd\JJ	.	16bbn\JJ	.	.	.	.	.	.	.	.	.	.
8E\	.	8e\	.	16ee\LL	.	16ccc\LL	.	.	.	.	.	.	4ee\	.	4ccc\	.
.	.	.	.	16ee\	.	16ccc\	.	.	.	.	.	.	.	.	.	.
8C\J	.	8c\J	.	16ee\	.	16ccc\	.	.	.	.	.	.	.	.	.	.
.	.	.	.	16ee\JJ	.	16ccc\JJ	.	.	.	.	.	.	.	.	.	.
!	!	!LO:LB:g=original	!	!	!	!	!	!	!	!	!	!	!	!	!LO:LB:g=original	!
=42	=42	=42	=42	=42	=42	=42	=42	=42	=42	=42	=42	=42	=42	=42	=42	=42
!LO:TX:t=P:problem=mixed beam	!	!	!	!	!	!	!	!	!	!LO:TX:t=P:problem=dwa łuki na końcu systemu	!	!	!	!	!	!
8GG/L	.	8g\L	.	16dd\LL	.	16bbn\LL	.	2g\]	.	2g\_<	.	2ryy	4dd\	.	4bbny\	.
.	.	.	.	16dd\	.	16bbn\	.	.	.	.	.	.	.	.	.	.
8G\	.	8g\	.	16dd\	.	16bbn\	.	.	.	.	.	.	.	.	.	.
.	.	.	.	16dd\JJ	.	16bbn\JJ	.	.	.	.	.	.	.	.	.	.
8E\	.	8e\	.	16ee\LL	.	16ccc\LL	.	.	.	.	.	.	4ee\	.	4ccc\	.
.	.	.	.	16ee\	.	16ccc\	.	.	.	.	.	.	.	.	.	.
8C\J	.	8c\J	.	16ee\	.	16ccc\	.	.	.	.	.	.	.	.	.	.
.	.	.	.	16ee\JJ	.	16ccc\JJ	.	.	.	.	.	.	.	.	.	.
!LO:LB:g=original	!	!	!	!	!	!	!	!	!	!	!	!	!	!	!	!
=43	=43	=43	=43	=43	=43	=43	=43	=43	=43	=43	=43	=43	=43	=43	=43	=43
!LO:TX:t=P:problem=mixed beam	!	!LO:TX:t=P:problem=mixed beam	!	!	!	!	!	!	!	!	!	!	!	!	!	!
8GG/L	.	8G/L	.	4dd\	.	4bbn\	.	4g\	.	4g\]	.	2ryy	4dd\	.	4bbny\	.
8G\	.	8g\	.	.	.	.	.	.	.	.	.	.	.	.	.	.
8D\	.	8d\	.	4g\ 4dd	.	4g\ 4dd 4bb	.	4g\	.	4g\	.	.	4dd\	.	4bbny\	.
8BB-\J	.	8B-\J	.	.	.	.	.	.	.	.	.	.	.	.	.	.
=44	=44	=44	=44	=44	=44	=44	=44	=44	=44	=44	=44	=44	=44	=44	=44	=44
4GG/	.	4G/	.	4g\ 4dd	.	2g\ 2dd 2bbny	.	4g\	.	4g\	.	2ryy	4dd\	.	4bbny\	.
4r	.	4r	.	4r	.	.	.	4r	.	4r	.	.	4r	.	4r	.
=45	=45	=45	=45	=45	=45	=45	=45	=45	=45	=45	=45	=45	=45	=45	=45	=45
!	!	!LO:TX:a:t=4	!	!	!LO:DY:b:t=pia	!LO:TX:b:t=dolce	!	!LO:TX:a:t=19	!	!LO:TX:a:t=19	!	!	!LO:TX:a:t=8	!	!LO:TX:a:t=8	!
4r	.	2r	.	4.c/	p	4.e/	.	2r	.	2r	.	2ryy	2r	.	2r	.
!	!LO:DY:b:t=pia	!	!	!	!	!	!	!	!	!	!	!	!	!	!	!
4C/	p	.	.	.	.	.	.	.	.	.	.	.	.	.	.	.
.	.	.	.	8d/	.	8f/	p	.	.	.	.	.	.	.	.	.
!	!	!	!	!LO:LB:g=original	!	!	!	!	!	!	!	!	!	!	!	!
=46	=46	=46	=46	=46	=46	=46	=46	=46	=46	=46	=46	=46	=46	=46	=46	=46
4G\	.	2r	.	(8c/L	.	(8e/L	.	2r	.	2r	.	2ryy	2r	.	2r	.
.	.	.	.	8Bn/J)	.	8d/J)	.	.	.	.	.	.	.	.	.	.
4GG/	.	.	.	4B/	.	4d|/	.	.	.	.	.	.	.	.	.	.
=47	=47	=47	=47	=47	=47	=47	=47	=47	=47	=47	=47	=47	=47	=47	=47	=47
4r	.	2r	.	4.d/	.	4.f/	.	2r	.	2r	.	2ryy	2r	.	2r	.
4BBn/	.	.	.	.	.	.	.	.	.	.	.	.	.	.	.	.
.	.	.	.	8e/	.	8g/	.	.	.	.	.	.	.	.	.	.
=48	=48	=48	=48	=48	=48	=48	=48	=48	=48	=48	=48	=48	=48	=48	=48	=48
4C/	.	2r	.	8d/L	.	8f/L	.	2r	.	2r	.	2ryy	2r	.	2r	.
.	.	.	.	8c/J	.	8e/J	.	.	.	.	.	.	.	.	.	.
4CC/	.	.	.	4c/	.	4e/	.	.	.	.	.	.	.	.	.	.
=49	=49	=49	=49	=49	=49	=49	=49	=49	=49	=49	=49	=49	=49	=49	=49	=49
(2F\	.	(2A/	p	[2c/	.	(8a/L	.	2r	.	2r	.	2ryy	2r	.	2r	.
.	.	.	.	.	.	8f/)	.	.	.	.	.	.	.	.	.	.
.	.	.	.	.	.	(8cc/	.	.	.	.	.	.	.	.	.	.
.	.	.	.	.	.	8a/J)	.	.	.	.	.	.	.	.	.	.
!	!	!	!	!	!	!LO:LB:g=original	!	!	!	!	!	!	!	!	!	!
=50	=50	=50	=50	=50	=50	=50	=50	=50	=50	=50	=50	=50	=50	=50	=50	=50
4E\)	.	4G/)	.	4c/]	.	(8g/L	.	2r	.	2r	.	2ryy	2r	.	2r	.
.	.	.	.	.	.	8e/	.	.	.	.	.	.	.	.	.	.
4r	.	4r	.	4r	.	8d/	.	.	.	.	.	.	.	.	.	.
.	.	.	.	.	.	8c/J)	.	.	.	.	.	.	.	.	.	.
=51	=51	=51	=51	=51	=51	=51	=51	=51	=51	=51	=51	=51	=51	=51	=51	=51
!	!	!LO:TX:t=P:problem=zapis łuku niejednoznaczny	!	!	!	!	!	!	!	!	!	!	!	!	!	!
4BB-/	.	(4d\	.	[2g/	.	8f/L	.	2r	.	2r	.	2ryy	2r	.	2r	.
.	.	.	.	.	.	8dd/	.	.	.	.	.	.	.	.	.	.
4C/	.	4e\)	.	.	.	8e/	.	.	.	.	.	.	.	.	.	.
.	.	.	.	.	.	8cc/J	.	.	.	.	.	.	.	.	.	.
=52	=52	=52	=52	=52	=52	=52	=52	=52	=52	=52	=52	=52	=52	=52	=52	=52
.	.	.	.	.	.	8qqcc/	.	.	.	.	.	.	.	.	.	.
4G\	.	4d\	.	4g/]	.	4b-\	.	2r	.	2r	.	2ryy	2r	.	2r	.
4r	.	4r	.	4r	.	8a/L	.	.	.	.	.	.	.	.	.	.
.	.	.	.	.	.	8g/J	.	.	.	.	.	.	.	.	.	.
!	!	!	!	!	!	!	!	!	!	!	!	!	!LO:LB:g=original	!	!	!
=53	=53	=53	=53	=53	=53	=53	=53	=53	=53	=53	=53	=53	=53	=53	=53	=53
!	!	!	!	!	!	!	!	!	!	!	!	!	!	!	!LO:TX:b:t=dolce	!
4r	.	4r	.	4.c/	p	4.e/	p	2r	.	2r	.	2ryy	4.cc\	.	4.ee\	.
4C/	pp	4c\	p	.	.	.	.	.	.	.	.	.	.	.	.	.
!	!	!	!	!	!	!	!	!	!	!	!	!	!	!LO:DY:b:t=p&colon;	!	!LO:DY:b:t=p.
.	.	.	.	8d/	.	8f/	.	.	.	.	.	.	8dd\	p	8ff\	p
=54	=54	=54	=54	=54	=54	=54	=54	=54	=54	=54	=54	=54	=54	=54	=54	=54
4G\	.	4g\	.	8c/L	.	8e/L	.	2r	.	2r	.	2ryy	8cc\L	.	8ee\L	.
.	.	.	.	8Bn/J	.	8d/J	.	.	.	.	.	.	8bn\J	.	8dd\J	.
4GG/	.	4G/	.	4B/	.	4d/	.	.	.	.	.	.	4b\	.	4dd\	.
!LO:LB:g=original	!	!	!	!	!	!	!	!	!	!	!	!	!	!	!	!
=55	=55	=55	=55	=55	=55	=55	=55	=55	=55	=55	=55	=55	=55	=55	=55	=55
4r	.	4r	.	4.d/	.	4.f/	.	2r	.	2r	.	2ryy	4.dd\	.	4.ff\	.
4BBn/	.	4B-/	.	.	.	.	.	.	.	.	.	.	.	.	.	.
.	.	.	.	8e/	.	8g/	.	.	.	.	.	.	8ee\	.	8gg\	.
=56	=56	=56	=56	=56	=56	=56	=56	=56	=56	=56	=56	=56	=56	=56	=56	=56
4C/	.	4c/	.	8d/L	.	8f/L	.	2r	.	2r	.	2ryy	8dd\L	.	8ff\L	.
.	.	.	.	8c/J	.	8e/J	.	.	.	.	.	.	8cc\J	.	8ee\J	.
4CC/	.	4C/	.	4c/	.	4e/	.	.	.	.	.	.	4cc\	.	4ee\	.
!	!	!LO:LB:g=original	!	!	!	!	!	!	!	!	!	!	!	!	!	!
=57	=57	=57	=57	=57	=57	=57	=57	=57	=57	=57	=57	=57	=57	=57	=57	=57
(2F\	.	(2A/ [<2c	.	[2c/	.	(8a/L	.	2r	.	2r	.	2ryy	[<2cc\	.	8aa\L	.
.	.	.	.	.	.	8f/	.	.	.	.	.	.	.	.	8ff\	.
.	.	.	.	.	.	8cc/	.	.	.	.	.	.	.	.	8ccc\	.
.	.	.	.	.	.	8a/J)	.	.	.	.	.	.	.	.	8aa\J	.
!	!	!	!	!LO:LB:g=original	!	!	!	!	!	!	!	!	!	!	!	!
=58	=58	=58	=58	=58	=58	=58	=58	=58	=58	=58	=58	=58	=58	=58	=58	=58
4E\)	.	4G/) 4c]	.	4c/]	.	(8g/L	.	2r	.	2r	.	2ryy	4cc\]	.	8gg\L	.
.	.	.	.	.	.	8e/	.	.	.	.	.	.	.	.	8ee\	.
4r	.	4r	.	4r	.	8d/	.	.	.	.	.	.	4r	.	8dd\	.
.	.	.	.	.	.	8c/J)	.	.	.	.	.	.	.	.	8cc\J	.
!	!	!	!	!	!	!LO:LB:g=original	!	!	!	!	!	!	!	!	!	!
=59	=59	=59	=59	=59	=59	=59	=59	=59	=59	=59	=59	=59	=59	=59	=59	=59
(<2F\	.	(2A/	.	[2c/	.	(8a/L	.	2r	.	2r	.	2ryy	[<2cc\	.	8aa\L	.
.	.	.	.	.	.	8f/	.	.	.	.	.	.	.	.	8ff\	.
.	.	.	.	.	.	8cc/	.	.	.	.	.	.	.	.	8ccc\	.
.	.	.	.	.	.	8a/J	.	.	.	.	.	.	.	.	8aa\J	.
=60	=60	=60	=60	=60	=60	=60	=60	=60	=60	=60	=60	=60	=60	=60	=60	=60
4E\)	.	4G/)	.	4c/]	.	8g/L)	.	2r	.	2r	.	2ryy	4cc\]	.	8gg\L	.
.	.	.	.	.	.	8e/	.	.	.	.	.	.	.	.	8ee\	.
4r	.	4r	.	4r	.	8d/	.	.	.	.	.	.	4r	.	8dd\	.
.	.	.	.	.	.	8c/J	.	.	.	.	.	.	.	.	8cc\J	.
=61	=61	=61	=61	=61	=61	=61	=61	=61	=61	=61	=61	=61	=61	=61	=61	=61
2F\	.	(2A/	.	[2c/	.	8a/L	.	2r	.	2r	.	2ryy	[<2cc\	.	8aa\L	.
.	.	.	.	.	.	8f/	.	.	.	.	.	.	.	.	8ff\	.
.	.	.	.	.	.	8cc/	.	.	.	.	.	.	.	.	8ccc\	.
.	.	.	.	.	.	8a/J	.	.	.	.	.	.	.	.	8aa\J	.
=62	=62	=62	=62	=62	=62	=62	=62	=62	=62	=62	=62	=62	=62	=62	=62	=62
4E\	.	4.G/)	.	4c/]	.	8g/L	.	2r	.	2r	.	2ryy	4.cc\]	.	8gg\L	.
.	.	.	.	.	.	8cc/	.	.	.	.	.	.	.	.	8ccc\	.
4F\	.	.	.	4r	.	8.a/	.	.	.	.	.	.	.	.	8.aa\	.
.	.	8A/	.	.	.	.	.	.	.	.	.	.	8a/	.	.	.
.	.	.	.	.	.	16f/Jk	.	.	.	.	.	.	.	.	16ff\Jk	.
!	!	!	!	!	!	!	!	!	!	!	!	!	!	!	!LO:LB:g=original	!
=63	=63	=63	=63	=63	=63	=63	=63	=63	=63	=63	=63	=63	=63	=63	=63	=63
4G\	.	8G/L	.	4g/	.	8e/L	.	2r	.	2r	.	2ryy	8g/L	.	8ee\L	.
.	.	8F/	.	.	.	8d/	.	.	.	.	.	.	8f/	.	8dd\	.
4GG/	.	8E/	.	4G/	.	8c/	.	.	.	.	.	.	8e/	.	8cc\	.
.	.	8D/J	.	.	.	8Bn/J	.	.	.	.	.	.	8d/J	.	8bn\J	.
=64	=64	=64	=64	=64	=64	=64	=64	=64	=64	=64	=64	=64	=64	=64	=64	=64
!	!LO:DY:b:t=cres&colon;	!	!	!	!LO:DY:b:t=crescendo	!LO:TX:t=P:problem=mixed beam	!LO:DY:b:t=crescendo	!	!	!	!	!	!	!	!	!
2C/	<	8C/L	.	8c/L	<	(8c/L	<	[2c/	<	[2c/	<	2ryy	4e/	.	4cc\	.
.	.	8c/	.	8e/	[	8cc\)	[	.	.	.	.	.	.	.	.	.
!	!	!	!LO:DY:b:t=cres	!	!	!	!	!	!	!	!	!	!	!	!	!
.	.	8c/	<	8e'/	.	8cc'\	.	.	.	.	.	.	4r	.	4r	.
.	.	8c/J	.	8e'/J	.	8cc'\J	.	.	.	.	.	.	.	.	.	.
=65	=65	=65	=65	=65	=65	=65	=65	=65	=65	=65	=65	=65	=65	=65	=65	=65
!	!	!	!	!	!	!	!	!	!	!	!	!	!LO:TX:a:t=3	!	!LO:TX:a:t=3	!
2C/	.	8c\L	.	8d/L	.	8bn\L	.	2c/_	.	2c/_	.	2ryy	2r	.	2r	.
.	.	8c\	.	8f/	.	8dd'\	.	.	.	.	.	.	.	.	.	.
.	.	8c\	.	8f/	.	8dd\	.	.	.	.	.	.	.	.	.	.
.	.	8c\J	.	8f/J	.	8dd\J	.	.	.	.	.	.	.	.	.	.
=66	=66	=66	=66	=66	=66	=66	=66	=66	=66	=66	=66	=66	=66	=66	=66	=66
!	!	!	!	!LO:TX:t=P:problem=mixed beam	!	!	!	!	!	!	!	!	!	!	!	!
!	!	!	!	!LO:TX:b:t=l	!	!	!	!	!	!	!	!	!	!	!	!
[2C/	.	8c\L	.	8e/L	.	8cc\L	.	2c/_	.	2c/_	.	2ryy	2r	.	2r	.
.	.	8c\	.	8cc\	.	8ee\	.	.	.	.	.	.	.	.	.	.
.	.	8c\	.	8cc\	.	8ee\	.	.	.	.	.	.	.	.	.	.
.	.	8c\J	.	8cc\J	.	8ee\J	.	.	.	.	.	.	.	.	.	.
=67	=67	=67	=67	=67	=67	=67	=67	=67	=67	=67	=67	=67	=67	=67	=67	=67
2C/]	.	8c\L	.	8bn\L	.	(8dd\L	.	2c/]	.	2c/]	.	2ryy	2r	.	2r	.
.	.	8c\	.	8dd\	.	8ff\)	.	.	.	.	.	.	.	.	.	.
.	.	8c\	.	8dd\	.	8ff'\	.	.	.	.	.	.	.	.	.	.
.	.	8c\J	.	8dd\J	.	8ff'\J	.	.	.	.	.	.	.	.	.	.
!LO:LB:g=original	!	!	!	!	!	!LO:LB:g=original	!	!	!	!	!	!	!LO:LB:g=original	!	!	!
=68	=68	=68	=68	=68	=68	=68	=68	=68	=68	=68	=68	=68	=68	=68	=68	=68
!LO:TX:b:i:t=il	!	!	!	!	!	!	!	!	!	!	!	!	!	!	!	!
!LO:TX:t=P:problem=mixed beam	!	!LO:TX:b:i:t=il	!	!LO:TX:b:i:t=il	!	!	!	!LO:TX:b:i:t=rin	!LO:DY:b:t=for	!	!	!	!	!	!	!
8C/L	.	8c\L	.	16cc\LL	.	16ee\LL	.	4C/	f	4c/	.	2ryy	4r	.	4r	.
!	!	!	!	!	!LO:DY:b:t=for	!	!	!	!	!	!	!	!	!	!	!
.	.	.	.	16ee\	f	16ccc\	.	.	.	.	.	.	.	.	.	.
!	!LO:DY:b:t=for	!	!LO:DY:b:t=for	!	!	!LO:TX:b:i:t=il	!	!	!	!	!	!	!	!	!	!
8c\	f	8cc\	f	16ee\	.	16ccc\	.	.	.	.	.	.	.	.	.	.
!	!	!	!	!	!	!	!LO:DY:b:t=for	!	!	!	!	!	!	!	!	!
.	.	.	.	16ee\JJ	.	16ccc\JJ	f	.	.	.	.	.	.	.	.	.
!	!	!	!	!	!	!	!	!	!	!	!	!	!	!LO:DY:b:t=rinf.	!	!LO:DY:b:t=for
8c\	.	8cc\	.	16ee\LL	.	16ccc\LL	.	8.C/L	.	8.c/L	.	.	4e/	f	4cc\	f
.	.	.	.	16ee\	.	16ccc\	.	.	.	.	.	.	.	.	.	.
8c\J	.	8cc\J	.	16ee\	.	16ccc\	.	.	.	.	.	.	.	.	.	.
.	.	.	.	16ee\JJ	.	16ccc\JJ	.	16C/Jk	.	16c/Jk	.	.	.	.	.	.
!	!	!LO:LB:g=original	!	!LO:LB:g=original	!	!	!	!	!	!	!	!	!	!	!	!
=69	=69	=69	=69	=69	=69	=69	=69	=69	=69	=69	=69	=69	=69	=69	=69	=69
*Xtremolo	*	*	*	*	*	*Xtremolo	*	*	*	*	*	*	*	*	*	*
8c\L	.	8cc\L	.	16dd\LL	.	16bbn\LL	.	4C/	.	4c/	.	2ryy	4d/	.	4bn\	.
.	.	.	.	16ff\	.	16bb\	.	.	.	.	.	.	.	.	.	.
8c\	.	8cc\	.	16ff\	.	16ddd\	.	.	.	.	.	.	.	.	.	.
.	.	.	.	16ff\JJ	.	16ddd\JJ	.	.	.	.	.	.	.	.	.	.
*	*	*	*	*	*	*tremolo	*	*	*	*	*	*	*	*	*	*
8c\	.	8cc\	.	16ff\LL	.	16ddd\LL	.	4r	.	4r	.	.	4f/	.	4dd\	.
.	.	.	.	16ff\	.	16ddd\	.	.	.	.	.	.	.	.	.	.
8c\J	.	8cc\J	.	16ff\	.	16ddd\	.	.	.	.	.	.	.	.	.	.
.	.	.	.	16ff\JJ	.	16ddd\JJ	.	.	.	.	.	.	.	.	.	.
!	!	!	!	!	!	!	!	!LO:LB:g=original	!	!	!	!	!	!	!	!
=70	=70	=70	=70	=70	=70	=70	=70	=70	=70	=70	=70	=70	=70	=70	=70	=70
*tremolo	*	*	*	*	*	*Xtremolo	*	*	*	*	*	*	*	*	*	*
8c\L	.	8cc\L	.	16ee\LL	.	16ccc\LL	.	[2C/	.	2c/	.	2ryy	4e/	.	4cc\	.
.	.	.	.	16ccc\	.	16ccc\	.	.	.	.	.	.	.	.	.	.
8c\	.	8cc\	.	16ccc\	.	16eee\	.	.	.	.	.	.	.	.	.	.
.	.	.	.	16ccc\JJ	.	16eee\JJ	.	.	.	.	.	.	.	.	.	.
*	*	*	*	*	*	*tremolo	*	*	*	*	*	*	*	*	*	*
8c\	.	8cc\	.	16ccc\LL	.	16eee\LL	.	.	.	.	.	.	4cc\	.	4ee\	.
.	.	.	.	16ccc\	.	16eee\	.	.	.	.	.	.	.	.	.	.
8c\J	.	8cc\J	.	16ccc\	.	16eee\	.	.	.	.	.	.	.	.	.	.
.	.	.	.	16ccc\JJ	.	16eee\JJ	.	.	.	.	.	.	.	.	.	.
=71	=71	=71	=71	=71	=71	=71	=71	=71	=71	=71	=71	=71	=71	=71	=71	=71
8c\L	.	8cc\L	.	16dd\LL	.	16ddd\LL	.	2C/]	.	2c/	.	2ryy	4bn\	.	4dd\	.
.	.	.	.	16dd\	.	16ff\	.	.	.	.	.	.	.	.	.	.
!	!	!	!	!	!	!	!LO:DY:b:t=fortiſsimo	!	!	!	!	!	!	!	!	!
8c\	.	8cc\	.	16dd\	.	16ff\	ff	.	.	.	.	.	.	.	.	.
.	.	.	.	16dd\	.	16ff\JJ	.	.	.	.	.	.	.	.	.	.
8c\	.	8cc\	.	16dd\	.	16ff\LL	.	.	.	.	.	.	4dd\	.	4ff\	.
.	.	.	.	16dd\	.	16ff\	.	.	.	.	.	.	.	.	.	.
8c\J	.	8cc\J	.	16dd\	.	16ff\	.	.	.	.	.	.	.	.	.	.
.	.	.	.	16dd\JJ	.	16ff\JJ	.	.	.	.	.	.	.	.	.	.
=72	=72	=72	=72	=72	=72	=72	=72	=72	=72	=72	=72	=72	=72	=72	=72	=72
!	!LO:DY:b:t=forte	!	!LO:DY:b:t=for	!	!LO:DY:b:t=fortiſ	!	!	!	!	!	!LO:DY:b:t=fortiſ&colon;	!	!	!	!	!
4c\	f	4cc\	f	16cc\LL	ff	16ee\LL	.	4C/	.	4c/	ff	2ryy	4cc\	.	4ee\	.
.	.	.	.	16dd\	.	16ff\	.	.	.	.	.	.	.	.	.	.
.	.	.	.	16ee\	.	16gg\	.	.	.	.	.	.	.	.	.	.
.	.	.	.	16dd\JJ	.	16ff\JJ	.	.	.	.	.	.	.	.	.	.
4r	.	4r	.	16cc\LL	.	16ee\LL	.	4r	.	4r	.	.	4r	.	4r	.
.	.	.	.	16dd\	.	16ff\	.	.	.	.	.	.	.	.	.	.
.	.	.	.	16ee\	.	16gg\	.	.	.	.	.	.	.	.	.	.
.	.	.	.	16dd\JJ	.	16ff\JJ	.	.	.	.	.	.	.	.	.	.
!	!	!	!	!	!	!	!	!	!	!LO:LB:g=original	!	!	!	!	!	!
=73	=73	=73	=73	=73	=73	=73	=73	=73	=73	=73	=73	=73	=73	=73	=73	=73
8r	.	8r	.	4cc\	.	4ee\	.	8r	.	8r	.	2ryy	8r	.	8r	.
!	!	!	!	!	!	!	!	!	!LO:DY:b:t=for&colon;	!	!	!	!	!	!	!LO:DY:b:t=for
8c\L	.	8cc\L	.	.	.	.	.	16C/LL	f	16c/LL	.	.	16ee\LL	.	16ccc\LL	f
.	.	.	.	.	.	.	.	16C/JJ	.	16c/JJ	.	.	16ee\JJ	.	16ccc\JJ	.
8G\	.	8g\	.	4r	.	4r	.	8C/L	.	8c/L	.	.	8ee\L	.	8ccc\L	.
8E\J	.	8e\J	.	.	.	.	.	8C/J	.	8c/J	.	.	8ee\J	.	8ccc\J	.
!	!	!	!	!	!	!LO:LB:g=original	!	!	!	!	!	!	!	!	!	!
=74	=74	=74	=74	=74	=74	=74	=74	=74	=74	=74	=74	=74	=74	=74	=74	=74
4C/	.	4c/	.	16cc\LL	.	16ee\LL	.	4C/	.	4c/	.	2ryy	4ee\	.	4ccc\	.
.	.	.	.	16dd\	.	16ff\	.	.	.	.	.	.	.	.	.	.
.	.	.	.	16ee\	.	16gg\	.	.	.	.	.	.	.	.	.	.
.	.	.	.	16dd\JJ	.	16ff\JJ	.	.	.	.	.	.	.	.	.	.
4r	.	4r	.	16cc\LL	.	16ee\LL	.	4r	.	4r	.	.	4r	.	4r	.
.	.	.	.	16dd\	.	16ff\	.	.	.	.	.	.	.	.	.	.
.	.	.	.	16ee\	.	16gg\	.	.	.	.	.	.	.	.	.	.
.	.	.	.	16dd\JJ	.	16ff\JJ	.	.	.	.	.	.	.	.	.	.
=75	=75	=75	=75	=75	=75	=75	=75	=75	=75	=75	=75	=75	=75	=75	=75	=75
8r	.	8r	.	4cc\	.	4ee\	.	8r	.	8r	.	2ryy	8r	.	8r	.
8c\L	.	8cc\L	.	.	.	.	.	16C/LL	.	16c/LL	.	.	16ee\LL	.	16ccc\LL	.
.	.	.	.	.	.	.	.	16C/JJ	.	16c/JJ	.	.	16ee\JJ	.	16ccc\JJ	.
8G\	.	8g\	.	4r	.	4r	.	8C/L	.	8c/L	.	.	8ee\L	.	8ccc\L	.
8E\J	.	8e\J	.	.	.	.	.	8C/J	.	8c/J	.	.	8ee\J	.	8ccc\J	.
=76	=76	=76	=76	=76	=76	=76	=76	=76	=76	=76	=76	=76	=76	=76	=76	=76
4C/	.	4c/	.	16ee\LL	.	16ccc|\LL	.	4C/	.	4c/	.	2ryy	4ee\	.	4ccc\	.
.	.	.	.	16ff\	.	16ddd|\	.	.	.	.	.	.	.	.	.	.
.	.	.	.	16gg\	.	16eee|\	.	.	.	.	.	.	.	.	.	.
.	.	.	.	16ff\JJ	.	16ddd|\JJ	.	.	.	.	.	.	.	.	.	.
4r	.	4r	.	16ee\LL	.	16ccc|\LL	.	4r	.	4r	.	.	4r	.	4r	.
.	.	.	.	16ff\	.	16ddd|\	.	.	.	.	.	.	.	.	.	.
.	.	.	.	16gg\	.	16eee|\	.	.	.	.	.	.	.	.	.	.
.	.	.	.	16ff\JJ	.	16ddd|\JJ	.	.	.	.	.	.	.	.	.	.
!	!	!	!	!LO:LB:g=original	!	!	!	!	!	!	!	!	!	!	!	!
=77	=77	=77	=77	=77	=77	=77	=77	=77	=77	=77	=77	=77	=77	=77	=77	=77
!	!	!	!	!	!	!LO:TX:t=P:problem=nieczytelny takt	!	!	!	!	!	!	!	!	!	!
4C/	.	4c/	.	16ee\LL	.	16ccc|\LL	.	4C/	.	4c/	.	2ryy	4ee\	.	4ccc\	.
.	.	.	.	16ff\	.	16fff|\	.	.	.	.	.	.	.	.	.	.
.	.	.	.	16gg\	.	16eee|\	.	.	.	.	.	.	.	.	.	.
.	.	.	.	16ff\JJ	.	16ddd|\JJ	.	.	.	.	.	.	.	.	.	.
4r	.	4r	.	16ee\LL	.	16ccc\LL	.	4r	.	4r	.	.	4r	.	4r	.
.	.	.	.	16ff\	.	16ddd\	.	.	.	.	.	.	.	.	.	.
.	.	.	.	16gg\	.	16eee\	.	.	.	.	.	.	.	.	.	.
.	.	.	.	16ff\JJ	.	16ddd\JJ	.	.	.	.	.	.	.	.	.	.
!LO:LB:g=original	!	!	!	!	!	!	!	!	!	!	!	!	!	!	!LO:LB:g=original	!
=78	=78	=78	=78	=78	=78	=78	=78	=78	=78	=78	=78	=78	=78	=78	=78	=78
8C\L	.	8c\L	.	4ee\	.	4ccc\	.	4C/	.	4c/	.	2ryy	4ee\	.	4ccc\	.
8c\	.	8cc\	.	.	.	.	.	.	.	.	.	.	.	.	.	.
8G\	.	8g\	.	4g/ 4cc 4ee	.	4ee\ 4ccc	.	4C/	.	4c/	.	.	4ee\	.	4ccc\	.
8E\J	.	8e\J	.	.	.	.	.	.	.	.	.	.	.	.	.	.
!	!	!	!	!	!	!	!	!	!LO:LB:g=original	!	!	!	!	!	!	!
=79	=79	=79	=79	=79	=79	=79	=79	=79	=79	=79	=79	=79	=79	=79	=79	=79
!	!	!	!	!	!	!LO:TX:b:t=Vol&colon;Sub	!	!	!	!	!	!	!	!	!	!
2C/	.	2c\	.	2g/ 2cc 2ee	.	2ee\ 2ccc	.	2C/	.	2c/	.	2ryy	2ee\	.	2ccc\	.
!	!	!LO:LB:g=original	!	!	!	!LO:PB:g=original	!	!	!	!	!	!	!LO:LB:g=original	!	!	!
=80:|!|:	=80:|!|:	=80:|!|:	=80:|!|:	=80:|!|:	=80:|!|:	=80:|!|:	=80:|!|:	=80:|!|:	=80:|!|:	=80:|!|:	=80:|!|:	=80:|!|:	=80:|!|:	=80:|!|:	=80:|!|:	=80:|!|:
*	*	*Xtremolo	*	*	*	*	*	*	*	*	*	*	*	*	*	*
!	!LO:DY:b:t=pia	!	!	!	!LO:DY:b:t=pia	!	!LO:DY:b:t=pia&colon;	!LO:TX:a:t=8	!	!LO:TX:a:t=8	!	!	!LO:TX:a:t=8	!	!LO:TX:a:t=8	!
4C/	p	8c/L	p	4.e/	p	4.cc\	p	2r	.	2r	.	2ryy	2r	.	2r	.
.	.	8c/	.	.	.	.	.	.	.	.	.	.	.	.	.	.
4r	.	8c/	.	.	.	.	.	.	.	.	.	.	.	.	.	.
.	.	8c/J	.	8a/	.	8ff\	.	.	.	.	.	.	.	.	.	.
=81	=81	=81	=81	=81	=81	=81	=81	=81	=81	=81	=81	=81	=81	=81	=81	=81
*	*	*tremolo	*	*	*	*	*	*	*	*	*	*	*	*	*	*
!LO:TX:a:t=1	!	!	!	!	!	!	!	!	!	!	!	!	!	!	!	!
.	.	.	.	8qqb-/	.	8qqgg/	.	.	.	.	.	.	.	.	.	.
2r	.	8c\L	.	8a/L	.	8ff\L	.	2r	.	2r	.	2ryy	2r	.	2r	.
.	.	8c\	.	8g/J	.	8ee\J	.	.	.	.	.	.	.	.	.	.
.	.	8c\	.	4g/	.	4ee\	.	.	.	.	.	.	.	.	.	.
.	.	8c\J	.	.	.	.	.	.	.	.	.	.	.	.	.	.
=82	=82	=82	=82	=82	=82	=82	=82	=82	=82	=82	=82	=82	=82	=82	=82	=82
4C/	.	8c\L	.	4.e/	.	4.cc\	.	2r	.	2r	.	2ryy	2r	.	2r	.
.	.	8c\	.	.	.	.	.	.	.	.	.	.	.	.	.	.
4r	.	8c\	.	.	.	.	.	.	.	.	.	.	.	.	.	.
.	.	8c\J	.	8ff\	.	8aa\	.	.	.	.	.	.	.	.	.	.
=83	=83	=83	=83	=83	=83	=83	=83	=83	=83	=83	=83	=83	=83	=83	=83	=83
!LO:TX:a:t=1	!	!	!	!	!	!	!	!	!	!	!	!	!	!	!	!
.	.	.	.	8qqgg/	.	8qqbb-/	.	.	.	.	.	.	.	.	.	.
2r	.	8c\L	.	8ff\L	.	8aa\L	.	2r	.	2r	.	2ryy	2r	.	2r	.
.	.	8c\	.	8ee\J	.	8gg\J	.	.	.	.	.	.	.	.	.	.
.	.	8c\	.	4ee\	.	4gg\	.	.	.	.	.	.	.	.	.	.
.	.	8c\J	.	.	.	.	.	.	.	.	.	.	.	.	.	.
=84	=84	=84	=84	=84	=84	=84	=84	=84	=84	=84	=84	=84	=84	=84	=84	=84
4En\	.	4c\	.	8cc\L	.	8ccc|\L	.	2r	.	2r	.	2ryy	2r	.	2r	.
.	.	.	.	(8cc\	.	(8ccc\	.	.	.	.	.	.	.	.	.	.
4r	.	4r	.	8bn\	.	8bbn\	.	.	.	.	.	.	.	.	.	.
.	.	.	.	8cc\J)	.	8ccc\J)	.	.	.	.	.	.	.	.	.	.
!	!	!	!	!LO:LB:g=original	!	!	!	!	!	!	!	!	!	!	!	!
=85	=85	=85	=85	=85	=85	=85	=85	=85	=85	=85	=85	=85	=85	=85	=85	=85
4F\	.	4c\	.	8a/L	.	8aa|\L	.	2r	.	2r	.	2ryy	2r	.	2r	.
.	.	.	.	(8a/	.	(8aa\	.	.	.	.	.	.	.	.	.	.
4r	.	4r	.	8g#X/	.	8gg#X\	.	.	.	.	.	.	.	.	.	.
.	.	.	.	8a/J)	.	8aa\J)	.	.	.	.	.	.	.	.	.	.
=86	=86	=86	=86	=86	=86	=86	=86	=86	=86	=86	=86	=86	=86	=86	=86	=86
(4F\	.	(4f\	.	(2a/	.	8ff\L	.	2r	.	2r	.	2ryy	2r	.	2r	.
.	.	.	.	.	.	8ee\	.	.	.	.	.	.	.	.	.	.
4F#X\)	.	4f#X\)	.	.	.	8dd\	.	.	.	.	.	.	.	.	.	.
.	.	.	.	.	.	8cc\J	.	.	.	.	.	.	.	.	.	.
=87	=87	=87	=87	=87	=87	=87	=87	=87	=87	=87	=87	=87	=87	=87	=87	=87
4G\	.	4g\	.	16g/LL)	.	16bny\LL	.	2r	.	2r	.	2ryy	2r	.	2r	.
.	.	.	.	16a/	.	16cc\	.	.	.	.	.	.	.	.	.	.
.	.	.	.	16bn/	.	16dd\	.	.	.	.	.	.	.	.	.	.
.	.	.	.	16cc/JJ	.	16ee\JJ	.	.	.	.	.	.	.	.	.	.
4r	.	(16g\LL	.	4b/	.	4dd\	.	.	.	.	.	.	.	.	.	.
.	.	16fn\	.	.	.	.	.	.	.	.	.	.	.	.	.	.
.	.	16e\	.	.	.	.	.	.	.	.	.	.	.	.	.	.
.	.	16d\JJ)	.	.	.	.	.	.	.	.	.	.	.	.	.	.
!LO:LB:g=original	!	!	!	!	!	!LO:LB:g=original	!	!	!	!	!	!	!	!	!	!
=88	=88	=88	=88	=88	=88	=88	=88	=88	=88	=88	=88	=88	=88	=88	=88	=88
*Xtremolo	*	*	*	*	*	*	*	*	*	*	*	*	*	*	*	*
!	!LO:DY:b:t=for	!	!LO:DY:b:t=for	!	!LO:DY:b:t=for	!	!LO:DY:b:t=fortiſ&colon;	!	!LO:DY:b:t=for	!	!	!	!	!	!	!LO:DY:b:t=for
8C/L	f	8c\L	f	4.e/	f	4.cc\	ff	4C/	f	4c/	.	2ryy	4.e/	.	4.cc\	f
8C/	.	8c\	.	.	.	.	.	.	.	.	.	.	.	.	.	.
8C/	.	8c\	.	.	.	.	.	8.C/L	.	8.c/L	.	.	.	.	.	.
8C/J	.	8c\J	.	8a/	.	8ff\	.	.	.	.	.	.	8a/	.	8ff\	.
.	.	.	.	.	.	.	.	16C/Jk	.	16c/Jk	.	.	.	.	.	.
=89	=89	=89	=89	=89	=89	=89	=89	=89	=89	=89	=89	=89	=89	=89	=89	=89
.	.	.	.	8qqb-/	.	8qqgg/	.	.	.	.	.	.	8qqb-/	.	8qqgg/	.
*tremolo	*	*	*	*	*	*	*	*	*	*	*	*	*	*	*	*
8C/L	.	8c\L	.	8a/L	.	8ff\L	.	4C/	.	4c/	.	2ryy	8a/L	.	8ff\L	.
8C/	.	8c\	.	8g/J	.	8ee\J	.	.	.	.	.	.	8g/J	.	8ee\J	.
8C/	.	8c\	.	4g/	.	4ee\	.	4r	.	4r	.	.	4g/	.	4ee\	.
8C/J	.	8c\J	.	.	.	.	.	.	.	.	.	.	.	.	.	.
!	!	!	!	!	!	!	!	!	!	!LO:LB:g=original	!	!	!	!	!	!
=90	=90	=90	=90	=90	=90	=90	=90	=90	=90	=90	=90	=90	=90	=90	=90	=90
8C/L	.	8c\L	.	4.e/	.	4.cc\	.	4C/	.	4c/	.	2ryy	4.cc\	.	4.cc\	.
8C/	.	8c\	.	.	.	.	.	.	.	.	.	.	.	.	.	.
8C/	.	8c\	.	.	.	.	.	8.C/L	.	8.c/L	.	.	.	.	.	.
8C/J	.	8c\J	.	8ff\	.	8aa\	.	.	.	.	.	.	8ff\	.	8aa\	.
.	.	.	.	.	.	.	.	16C/Jk	.	16c/Jk	.	.	.	.	.	.
=91	=91	=91	=91	=91	=91	=91	=91	=91	=91	=91	=91	=91	=91	=91	=91	=91
.	.	.	.	8qqgg/	.	8qqbb-/	.	.	.	.	.	.	.	.	.	.
8C/L	.	8c\L	.	8ff\L	.	8aa\L	.	4C/	.	4c/	.	2ryy	8ff\L	.	8aa\L	.
8C/	.	8c\	.	8ee\J	.	8gg\J	.	.	.	.	.	.	8ee\J	.	8gg\J	.
8C/	.	8c\	.	4ee\	.	4gg\	.	4r	.	4r	.	.	4ee\	.	4gg\	.
8C/J	.	8c\J	.	.	.	.	.	.	.	.	.	.	.	.	.	.
!	!	!LO:LB:g=original	!	!	!	!	!	!	!	!	!	!	!	!	!	!
=92	=92	=92	=92	=92	=92	=92	=92	=92	=92	=92	=92	=92	=92	=92	=92	=92
*	*	*	*	*Xtremolo	*	*Xtremolo	*	*	*	*	*	*	*	*	*	*
!	!	!	!	!	!LO:DY:b:t=pia	!	!LO:DY:b:t=pia&colon;	!LO:TX:a:t=2	!	!LO:TX:a:t=2	!	!	!	!LO:DY:b:t=p&colon;	!	!
4C/	.	4c\	.	8gg\L	p	8bb-X'\L	p	2r	.	2r	.	2ryy	8gg\L	p	(4bb-X\	p
.	.	.	.	8gg\	.	8bb-'\	.	.	.	.	.	.	8gg\	.	.	.
4r	.	4r	.	8ff\	.	8aa'\	.	.	.	.	.	.	8ff\	.	4aa\	.
.	.	.	.	8ff\J	.	8aa'\J	.	.	.	.	.	.	8ff\J	.	.	.
=93	=93	=93	=93	=93	=93	=93	=93	=93	=93	=93	=93	=93	=93	=93	=93	=93
!LO:TX:a:t=1	!	!LO:TX:a:t=1	!	!	!	!	!	!	!	!	!	!	!	!	!	!
2r	.	2r	.	8ee\L	.	8gg\L	.	2r	.	2r	.	2ryy	8ee\L	.	4gg\	.
.	.	.	.	8ee\	.	8gg\	.	.	.	.	.	.	8ee\	.	.	.
.	.	.	.	8dd\	.	8ff\	.	.	.	.	.	.	8dd\	.	4ff\	.
.	.	.	.	8dd\J	.	8ff\J	.	.	.	.	.	.	8dd\J	.	.	.
!	!	!	!	!LO:PB:g=original	!	!	!	!	!	!	!	!	!	!	!	!
=94	=94	=94	=94	=94	=94	=94	=94	=94	=94	=94	=94	=94	=94	=94	=94	=94
!	!LO:DY:b:t=pia	!	!	!	!	!	!	!	!LO:DY:b:t=p&colon;	!	!LO:DY:b:t=pia	!	!	!	!	!
[2C/	p	[<2c\	p	(8cc\L	.	(8ee\L	.	[2c/	p	[2cc\	p	2ryy	8cc/L	.	8ee\L	.
.	.	.	.	8b-X\)	.	8dd\)	.	.	.	.	.	.	8b-X/	.	8dd\)	.
.	.	.	.	8a'\	.	8cc'\	.	.	.	.	.	.	8a/	.	8cc'\	.
.	.	.	.	8b-'\J	.	8dd'\J	.	.	.	.	.	.	8b-/J	.	8dd'\J	.
=95	=95	=95	=95	=95	=95	=95	=95	=95	=95	=95	=95	=95	=95	=95	=95	=95
2C/]	.	(<2c\]	.	8a/L	.	8cc/L	.	2c/]	.	2cc\]	.	2ryy	8a/L	.	8cc/L	.
.	.	.	.	8g/	.	8b-X/	.	.	.	.	.	.	8g/	.	8b-X/	.
.	.	.	.	8f/	.	8a/	.	.	.	.	.	.	8f/	.	8a/	.
.	.	.	.	8e/J	.	8g/J	.	.	.	.	.	.	8e/J	.	8g/J	.
=96	=96	=96	=96	=96	=96	=96	=96	=96	=96	=96	=96	=96	=96	=96	=96	=96
*Xtremolo	*	*Xtremolo	*	*	*	*	*	*	*	*	*	*	*	*	*	*
!	!LO:DY:b:t=for	!	!LO:DY:b:t=for	!	!LO:DY:b:t=for	!	!LO:DY:b:t=for&colon;	!	!LO:DY:b:t=for	!	!LO:DY:b:t=for	!	!	!LO:DY:b:t=for	!	!
8F\L	f	8f\L)	f	4.f/	f	4.f/	f	4F/	f	4f\	f	2ryy	4.f/	f	4.f/	.
8F\	.	8f\	.	.	.	.	.	.	.	.	.	.	.	.	.	.
8F\	.	8f\	.	.	.	.	.	8.F/L	.	8.f\L	.	.	.	.	.	.
!	!	!	!	!	!	!	!	!	!	!	!	!	!	!	!	!LO:DY:b:t=for
8F\J	.	8f\J	.	8d/	.	8b-/	.	.	.	.	.	.	8dd\	.	8bb-\	f
.	.	.	.	.	.	.	.	16F/Jk	.	16f\Jk	.	.	.	.	.	.
!	!	!	!	!	!	!LO:LB:g=original	!	!LO:LB:g=original	!	!	!	!	!	!	!	!
=97	=97	=97	=97	=97	=97	=97	=97	=97	=97	=97	=97	=97	=97	=97	=97	=97
*tremolo	*	*tremolo	*	*	*	*	*	*	*	*	*	*	*	*	*	*
.	.	.	.	8qqe/	.	8qqcc/	.	.	.	.	.	.	.	.	.	.
8F\L	.	8f\L	.	8d/L	.	8b-\L	.	4F/	.	4f\	.	2ryy	8dd\L	.	8bb-\L	.
8F\	.	8f\	.	8c/J	.	8a\J	.	.	.	.	.	.	8cc\J	.	8aa\J	.
8F\	.	8f\	.	4c/	.	4a/	.	4r	.	4r	.	.	4cc\	.	4aa\	.
8F\J	.	8f\J	.	.	.	.	.	.	.	.	.	.	.	.	.	.
!	!	!	!	!	!	!	!	!	!	!	!	!	!LO:LB:g=original	!	!	!
=98	=98	=98	=98	=98	=98	=98	=98	=98	=98	=98	=98	=98	=98	=98	=98	=98
8F\L	.	8f\L	.	4.A/	.	4.f/	.	4F/	.	4f\	.	2ryy	4.ff\	.	4.ff\	.
8F\	.	8f\	.	.	.	.	.	.	.	.	.	.	.	.	.	.
8F\	.	8f\	.	.	.	.	.	8.F/L	.	8.f\L	.	.	.	.	.	.
8F\J	.	8f\J	.	8b-X\	.	8dd\	.	.	.	.	.	.	8bb-\	.	8ddd\	.
.	.	.	.	.	.	.	.	16F/Jk	.	16f\Jk	.	.	.	.	.	.
!	!	!	!	!	!	!	!	!	!	!	!	!	!	!	!LO:LB:g=original	!
=99	=99	=99	=99	=99	=99	=99	=99	=99	=99	=99	=99	=99	=99	=99	=99	=99
.	.	.	.	8qqcc/	.	8qqee/	.	.	.	.	.	.	.	.	.	.
8F\L	.	8f\L	.	8b-\L	.	8dd\L	.	4F/	.	4f\	.	2ryy	8bb-\L	.	8ddd\L	.
8F\	.	8f\	.	8a\J	.	8cc\J	.	.	.	.	.	.	8aa\J	.	8ccc\J	.
8F\	.	8f\	.	4a\	.	4cc\	.	4r	.	4r	.	.	4aa\	.	4ccc\	.
8F\J	.	8f\J	.	.	.	.	.	.	.	.	.	.	.	.	.	.
!LO:LB:g=original	!	!	!	!	!	!	!	!	!	!	!	!	!	!	!	!
=100	=100	=100	=100	=100	=100	=100	=100	=100	=100	=100	=100	=100	=100	=100	=100	=100
!	!LO:DY:b:t=pia	!	!	!	!LO:DY:b:t=p&colon;	!	!	!LO:TX:a:t=2	!	!LO:TX:a:t=2	!	!	!	!LO:DY:b:t=p&colon;	!	!
4F\	p	4f\	p	8cc\L	p	8ee-X'\L	.	2r	.	2r	.	2ryy	4cc/	p	(4ee-X\	p
.	.	.	.	8cc\	.	8ee-'\	.	.	.	.	.	.	.	.	.	.
4r	.	4r	.	8b-X\	.	8dd'\	.	.	.	.	.	.	(4b-X/	.	4dd\	.
.	.	.	.	8b-\J	.	8dd'\J	.	.	.	.	.	.	.	.	.	.
=101	=101	=101	=101	=101	=101	=101	=101	=101	=101	=101	=101	=101	=101	=101	=101	=101
!LO:TX:a:t=1	!	!LO:TX:a:t=1	!	!	!	!	!	!	!	!	!	!	!	!	!	!
2r	.	2r	.	8a/L	.	8cc\L	.	2r	.	2r	.	2ryy	4a/	.	4cc\	.
.	.	.	.	8a/	.	8cc\	.	.	.	.	.	.	.	.	.	.
.	.	.	.	8g/	.	8b-\	.	.	.	.	.	.	4g/)	.	4b-\)	.
.	.	.	.	8g/J	.	8b-\J	.	.	.	.	.	.	.	.	.	.
=102	=102	=102	=102	=102	=102	=102	=102	=102	=102	=102	=102	=102	=102	=102	=102	=102
!	!	!	!	!	!	!	!	!	!	!	!LO:DY:b:t=pia	!	!LO:TX:t=P:problem=mixed beam	!	!LO:TX:t=P:problem=mixed beam	!
[2F\	pp	[<2f\	.	8f/L	.	(8a/L	.	[2F/	p	[<2f\	p	2ryy	8f/L	.	8a/L	.
.	.	.	.	8e-X/	.	8g/J	.	.	.	.	.	.	(8ee-X\	.	8gg\	.
.	.	.	.	8d/	.	8f'/L	.	.	.	.	.	.	8dd\	.	(8ff\	.
.	.	.	.	8e-/J	.	8g'/J)	.	.	.	.	.	.	8ee-\J)	.	8gg\J)	.
=103	=103	=103	=103	=103	=103	=103	=103	=103	=103	=103	=103	=103	=103	=103	=103	=103
2F\]	.	(<2f\]	.	8d/L	.	8f/L	.	2F/]	.	2f\_<	.	2ryy	8dd\L	.	8ff\L	.
.	.	.	.	8c/	.	8e-X/	.	.	.	.	.	.	8cc\	.	8ee-X\	.
.	.	.	.	8B-/	.	8d/	.	.	.	.	.	.	8b-\	.	8dd\	.
.	.	.	.	8A/J	.	8c/J	.	.	.	.	.	.	8a\J	.	8cc\J	.
!	!	!LO:LB:g=original	!	!LO:LB:g=original	!	!	!	!	!	!	!	!	!	!	!	!
=104	=104	=104	=104	=104	=104	=104	=104	=104	=104	=104	=104	=104	=104	=104	=104	=104
!	!LO:DY:b:t=forte	!	!LO:DY:b:t=for	!	!LO:DY:b:t=for	!	!	!	!	!	!	!	!	!	!	!LO:DY:b:t=for
8BB-X/L	f	8B-X/L)	f	8B-/L	f	8B-/L	.	4F/	.	4f\]	.	2ryy	8b-\L	.	8b-\L	f
16C/L	.	16c/L	.	16c/L	.	16c/L	.	.	.	.	.	.	16cc\L	.	16cc\L	.
16D/JJ	.	16d/JJ	.	16d/JJ	.	16d/JJ	.	.	.	.	.	.	16dd\JJ	.	16dd\JJ	.
16E-X\LL	.	16e-X\LL	.	16e-X/LL	.	16e-X/LL	.	4r	.	4r	.	.	16ee-X\LL	.	16ee-X\LL	.
16F\	.	16f\	.	16f/	.	16f/	.	.	.	.	.	.	16ff\	.	16ff\	.
16G\	.	16g\	.	16g/	.	16g/	.	.	.	.	.	.	16gg\	.	16gg\	.
16A\JJ	.	16a\JJ	.	16a/JJ	.	16a/JJ	.	.	.	.	.	.	16aa\JJ	.	16aan\JJ	.
!	!	!	!	!	!	!LO:LB:g=original	!	!	!	!	!	!	!	!	!	!
=105	=105	=105	=105	=105	=105	=105	=105	=105	=105	=105	=105	=105	=105	=105	=105	=105
!	!	!	!	!	!	!	!	!LO:TX:a:t=1	!	!LO:TX:a:t=1	!	!	!	!	!	!
8B-X\L	.	8b-\L	.	8b-/L	.	8b-/L	.	2r	.	2r	.	2ryy	8bb-\L	.	8bb-\L	.
8F\	.	8f\	.	8f/	.	8f/	.	.	.	.	.	.	8ff\	.	8ff\	.
8D\	.	8d\	.	8d/	.	8d/	.	.	.	.	.	.	8dd\	.	8dd\	.
8BB-\J	.	8B-\J	.	8B-/J	.	8B-/J	.	.	.	.	.	.	8b-\J	.	8b-\J	.
=106	=106	=106	=106	=106	=106	=106	=106	=106	=106	=106	=106	=106	=106	=106	=106	=106
!	!	!	!	!	!	!	!	!	!LO:DY:b:t=for	!	!LO:DY:b:t=for	!	!	!	!	!
4F\	.	4f\	.	4A/ 4f	.	4f/	.	4F/	f	4f\	f	2ryy	4a/	.	4ff\	.
8.C/L	.	4F/	.	4A/ 4f	.	4A/ 4f	.	4F/	.	4f\	.	.	4a/	.	4aa\	.
16AA/Jk	.	.	.	.	.	.	.	.	.	.	.	.	.	.	.	.
=107	=107	=107	=107	=107	=107	=107	=107	=107	=107	=107	=107	=107	=107	=107	=107	=107
4FF/	.	8f\L	.	2A/ 2f	.	2A/ 2f	.	2F/	.	2f\	.	2ryy	2a/	.	2ff\	.
.	.	8e-X\	.	.	.	.	.	.	.	.	.	.	.	.	.	.
4r	.	8d\	.	.	.	.	.	.	.	.	.	.	.	.	.	.
.	.	8c\J	.	.	.	.	.	.	.	.	.	.	.	.	.	.
!	!	!	!	!	!	!	!	!	!	!	!	!	!LO:LB:g=original	!	!	!
=108	=108	=108	=108	=108	=108	=108	=108	=108	=108	=108	=108	=108	=108	=108	=108	=108
!	!LO:DY:b:t=pia	!	!	!LO:TX:a:t=2	!	!	!	!LO:TX:a:t=2	!	!LO:TX:a:t=2	!	!	!LO:TX:a:t=10	!	!LO:TX:a:t=10	!
4BB-/	p	4B-/	.	2r	.	8r	.	2r	.	2r	.	2ryy	2r	.	2r	.
!	!	!	!	!	!	!	!LO:DY:b:t=pia	!	!	!	!	!	!	!	!	!
.	.	.	.	.	.	(8ff\L	p	.	.	.	.	.	.	.	.	.
4r	.	4r	.	.	.	8ee#X\	.	.	.	.	.	.	.	.	.	.
.	.	.	.	.	.	8ff\J	.	.	.	.	.	.	.	.	.	.
=109	=109	=109	=109	=109	=109	=109	=109	=109	=109	=109	=109	=109	=109	=109	=109	=109
!LO:TX:a:t=1	!	!LO:TX:a:t=1	!	!	!	!	!	!	!	!	!	!	!	!	!	!
2r	.	2r	.	2r	.	8gg\L	.	2r	.	2r	.	2ryy	2r	.	2r	.
.	.	.	.	.	.	8ff\	.	.	.	.	.	.	.	.	.	.
.	.	.	.	.	.	8ee\	.	.	.	.	.	.	.	.	.	.
.	.	.	.	.	.	8ff\J)	.	.	.	.	.	.	.	.	.	.
!LO:LB:g=original	!	!	!	!	!	!	!	!LO:LB:g=original	!	!	!	!	!	!	!	!
=110	=110	=110	=110	=110	=110	=110	=110	=110	=110	=110	=110	=110	=110	=110	=110	=110
4AA/	.	8r	.	8r	.	[2ff\	.	[2F/	pp	2f\	.	2ryy	2r	.	2r	.
!	!	!	!	!	!LO:DY:b:t=pia	!	!	!	!	!	!	!	!	!	!	!
*	*	*Xtremolo	*	*	*	*	*	*	*	*	*	*	*	*	*	*
.	.	(8c\L	p	(8e-X/L	p	.	.	.	.	.	.	.	.	.	.	.
4r	.	8B-X\	.	8d/	.	.	.	.	.	.	.	.	.	.	.	.
.	.	8c\J)	.	8e-/J)	.	.	.	.	.	.	.	.	.	.	.	.
=111	=111	=111	=111	=111	=111	=111	=111	=111	=111	=111	=111	=111	=111	=111	=111	=111
!	!	!	!	!	!	!	!	!	!	!	!LO:DY:a	!	!	!	!	!
2r	.	(8d\L	.	(8f/L	.	2ff\_	.	2F/]	.	2f\	pp	2ryy	2r	.	2r	.
.	.	8c\	.	8e-/	.	.	.	.	.	.	.	.	.	.	.	.
.	.	8B-\	.	8d/	.	.	.	.	.	.	.	.	.	.	.	.
.	.	8c\J)	.	8e-y/J)	.	.	.	.	.	.	.	.	.	.	.	.
=112	=112	=112	=112	=112	=112	=112	=112	=112	=112	=112	=112	=112	=112	=112	=112	=112
4BB-/	.	4B-/	.	4d/	.	8ff\L]	.	4F/	.	4f\	.	2ryy	2r	.	2r	.
.	.	.	.	.	.	(8ff\	.	.	.	.	.	.	.	.	.	.
4r	.	4r	.	4r	.	8ee#X\	.	4r	.	4r	.	.	.	.	.	.
.	.	.	.	.	.	(8ff\J)	.	.	.	.	.	.	.	.	.	.
=113	=113	=113	=113	=113	=113	=113	=113	=113	=113	=113	=113	=113	=113	=113	=113	=113
!	!	!	!	!	!	!	!	!	!	!LO:TX:t=P:problem=brak 00r	!	!	!	!	!	!
!LO:TX:a:t=1	!	!LO:TX:a:t=1	!	!LO:TX:a:t=1	!	!	!	!LO:TX:a:t=29	!	!LO:TX:a:t=29	!	!	!	!	!	!
2r	.	2r	.	2r	.	8gg\L)	.	2r	.	2r	.	2ryy	2r	.	2r	.
.	.	.	.	.	.	8ff\	.	.	.	.	.	.	.	.	.	.
.	.	.	.	.	.	8ee\	.	.	.	.	.	.	.	.	.	.
.	.	.	.	.	.	8ff\J	.	.	.	.	.	.	.	.	.	.
!	!	!LO:LB:g=original	!	!	!	!	!	!	!	!	!	!	!	!	!	!
=114	=114	=114	=114	=114	=114	=114	=114	=114	=114	=114	=114	=114	=114	=114	=114	=114
4AA/	.	8r	.	8r	.	[2ff\	.	2r	.	2r	.	2ryy	2r	.	2r	.
.	.	(8c\L	.	(8e-X/L	.	.	.	.	.	.	.	.	.	.	.	.
4r	.	8B-X\	.	8d/	.	.	.	.	.	.	.	.	.	.	.	.
.	.	8c\J	.	8e-/J)	.	.	.	.	.	.	.	.	.	.	.	.
!	!	!	!	!LO:LB:g=original	!	!	!	!	!	!	!	!	!	!	!	!
=115	=115	=115	=115	=115	=115	=115	=115	=115	=115	=115	=115	=115	=115	=115	=115	=115
(2A\	.	8d\L	.	8f/L	.	4ff\]	.	2r	.	2r	.	2ryy	2r	.	2r	.
.	.	8c\	.	8e-y/	.	.	.	.	.	.	.	.	.	.	.	.
.	.	8B-\	.	8d/	.	4ff#X\	.	.	.	.	.	.	.	.	.	.
.	.	8c\J)	.	8e-y/J	.	.	.	.	.	.	.	.	.	.	.	.
!	!	!	!	!	!	!LO:LB:g=original	!	!	!	!	!	!	!	!	!	!
=116	=116	=116	=116	=116	=116	=116	=116	=116	=116	=116	=116	=116	=116	=116	=116	=116
4G\)	.	4B-/	.	4d/	.	8gg\L	.	2r	.	2r	.	2ryy	2r	.	2r	.
.	.	.	.	.	.	(8dd\	.	.	.	.	.	.	.	.	.	.
4r	.	4r	.	4r	.	8cc#X\	.	.	.	.	.	.	.	.	.	.
.	.	.	.	.	.	8dd\J	.	.	.	.	.	.	.	.	.	.
=117	=117	=117	=117	=117	=117	=117	=117	=117	=117	=117	=117	=117	=117	=117	=117	=117
!LO:TX:a:t=1	!	!LO:TX:a:t=1	!	!LO:TX:a:t=1	!	!	!	!	!	!	!	!	!	!	!	!
2r	.	2r	.	2r	.	8ee-X\L)	.	2r	.	2r	.	2ryy	2r	.	2r	.
.	.	.	.	.	.	8dd\	.	.	.	.	.	.	.	.	.	.
.	.	.	.	.	.	8cc#X\	.	.	.	.	.	.	.	.	.	.
.	.	.	.	.	.	8dd\J	.	.	.	.	.	.	.	.	.	.
=118	=118	=118	=118	=118	=118	=118	=118	=118	=118	=118	=118	=118	=118	=118	=118	=118
!	!	!	!	!	!	!	!	!	!	!	!	!	!LO:N:vis=1	!LO:DY:b:t=p&colon;	!	!LO:DY:b:t=p&colon;
4FF#X/	.	8r	.	8r	.	[<2dd\	.	2r	.	2r	.	2ryy	[2d/	p	[<2dd\	p
.	.	8A/L	.	(8c/L	.	.	.	.	.	.	.	.	.	.	.	.
4r	.	8G/	.	8B-X/	.	.	.	.	.	.	.	.	.	.	.	.
.	.	8A/J	.	8c/J)	.	.	.	.	.	.	.	.	.	.	.	.
=119	=119	=119	=119	=119	=119	=119	=119	=119	=119	=119	=119	=119	=119	=119	=119	=119
!	!	!	!	!	!	!	!	!	!	!	!	!	!LO:N:vis=1	!	!	!
4F#X\	.	(8B-/L	.	(8d/L	.	2dd\_	.	2r	.	2r	.	2ryy	2d/_	.	2dd\_<	.
.	.	8A/	.	8c/	.	.	.	.	.	.	.	.	.	.	.	.
4r	.	8G/	.	8B-/)	.	.	.	.	.	.	.	.	.	.	.	.
.	.	8A/J)	.	8c/J	.	.	.	.	.	.	.	.	.	.	.	.
=120	=120	=120	=120	=120	=120	=120	=120	=120	=120	=120	=120	=120	=120	=120	=120	=120
4G\	.	4G/	.	4B-X/	.	8dd\L]	.	2r	.	2r	.	2ryy	4d/]	.	4dd\]	.
.	.	.	.	.	.	8dd\	.	.	.	.	.	.	.	.	.	.
4r	.	4r	.	4r	.	8cc#X\	.	.	.	.	.	.	4r	.	4r	.
.	.	.	.	.	.	8dd\J	.	.	.	.	.	.	.	.	.	.
=121	=121	=121	=121	=121	=121	=121	=121	=121	=121	=121	=121	=121	=121	=121	=121	=121
!LO:TX:a:t=1	!	!LO:TX:a:t=1	!	!LO:TX:a:t=1	!	!	!	!	!	!	!	!	!LO:TX:a:t=1	!	!LO:TX:a:t=1	!
2r	.	2r	.	2r	.	8ee-X\L	.	2r	.	2r	.	2ryy	2r	.	2r	.
.	.	.	.	.	.	(8dd\	.	.	.	.	.	.	.	.	.	.
.	.	.	.	.	.	8cc#X\	.	.	.	.	.	.	.	.	.	.
.	.	.	.	.	.	8dd\J)	.	.	.	.	.	.	.	.	.	.
!LO:LB:g=original	!	!	!	!	!	!	!	!	!	!	!	!	!	!	!	!
=122	=122	=122	=122	=122	=122	=122	=122	=122	=122	=122	=122	=122	=122	=122	=122	=122
4FF#X/	.	8r	.	8r	.	[<2dd\	.	2r	.	2r	.	2ryy	[2d/	.	[2dd\	.
.	.	(8A/L	.	8c/L	.	.	.	.	.	.	.	.	.	.	.	.
4r	.	8G/	.	(8B-/	.	.	.	.	.	.	.	.	.	.	.	.
.	.	8A/J	.	8c/J	.	.	.	.	.	.	.	.	.	.	.	.
=123	=123	=123	=123	=123	=123	=123	=123	=123	=123	=123	=123	=123	=123	=123	=123	=123
4F#X\	.	8B-/L	.	8d/L	.	2dd\]	.	2r	.	2r	.	2ryy	2d/_	.	2dd\]	.
.	.	8A/	.	8c/)	.	.	.	.	.	.	.	.	.	.	.	.
4r	.	8G/	.	8B-/	.	.	.	.	.	.	.	.	.	.	.	.
.	.	8A/J)	.	8c/J	.	.	.	.	.	.	.	.	.	.	.	.
!	!	!	!	!	!	!	!	!	!	!	!	!	!	!	!LO:LB:g=original	!
=124	=124	=124	=124	=124	=124	=124	=124	=124	=124	=124	=124	=124	=124	=124	=124	=124
(2G\	pp	2B-X/	.	(8B-X/L	.	(8b-X\L	.	2r	.	2r	.	2ryy	4d/]	.	4dd\	.
.	.	.	.	8G/)	.	8g\)	.	.	.	.	.	.	.	.	.	.
.	.	.	.	8e-X'/	.	8ee-X'\	.	.	.	.	.	.	4r	.	4r	.
.	.	.	.	(8e-'/J	.	8ee-'\J	.	.	.	.	.	.	.	.	.	.
!	!	!LO:LB:g=original	!	!LO:LB:g=original	!	!	!	!	!	!	!	!	!	!	!	!
=125	=125	=125	=125	=125	=125	=125	=125	=125	=125	=125	=125	=125	=125	=125	=125	=125
!	!	!	!	!	!	!	!	!	!	!	!	!	!LO:TX:a:t=17	!	!LO:TX:a:t=17	!
2F#X\	.	(2A/	.	8e-X/L)	.	8ee\L	.	2r	.	2r	.	2ryy	2r	.	2r	.
.	.	.	.	8d/	.	8dd\	.	.	.	.	.	.	.	.	.	.
.	.	.	.	8c#X/	.	8cc#X\	.	.	.	.	.	.	.	.	.	.
.	.	.	.	[8d/J	.	8dd\J	.	.	.	.	.	.	.	.	.	.
=126	=126	=126	=126	=126	=126	=126	=126	=126	=126	=126	=126	=126	=126	=126	=126	=126
2E-X\	.	2G/	.	8d/L]	.	8dd\L	.	2r	.	2r	.	2ryy	2r	.	2r	.
.	.	.	.	8cn/	.	8ccn\	.	.	.	.	.	.	.	.	.	.
.	.	.	.	8Bn/	.	8bn\	.	.	.	.	.	.	.	.	.	.
.	.	.	.	8c/J	.	8cc\J	.	.	.	.	.	.	.	.	.	.
!	!	!	!	!	!	!LO:LB:g=original	!	!	!	!	!	!	!	!	!	!
=127	=127	=127	=127	=127	=127	=127	=127	=127	=127	=127	=127	=127	=127	=127	=127	=127
2D\)	.	2F/)	.	8c/L	.	8cc\L	.	2r	.	2r	.	2ryy	2r	.	2r	.
.	.	.	.	8B-X/	.	8b-X\	.	.	.	.	.	.	.	.	.	.
.	.	.	.	8A/	.	8a\	.	.	.	.	.	.	.	.	.	.
!	!	!	!	!	!	!LO:TX:t=P:problem=zbędny łuk	!	!	!	!	!	!	!	!	!	!
.	.	.	.	8B-/J	.	[8b-\J	.	.	.	.	.	.	.	.	.	.
=128	=128	=128	=128	=128	=128	=128	=128	=128	=128	=128	=128	=128	=128	=128	=128	=128
.	.	.	.	8qqB-/	.	8qqb-/]	.	.	.	.	.	.	.	.	.	.
4C/	.	4E-X/	.	4A/	.	4a/	.	2r	.	2r	.	2ryy	2r	.	2r	.
4FF/	.	4e-y\	.	8c/L	.	8cc\L	.	.	.	.	.	.	.	.	.	.
.	.	.	.	8e-X/J	.	8ee-X\J	.	.	.	.	.	.	.	.	.	.
=129	=129	=129	=129	=129	=129	=129	=129	=129	=129	=129	=129	=129	=129	=129	=129	=129
.	.	.	.	8qqe-y/	.	8qqee-y/	.	.	.	.	.	.	.	.	.	.
4BB-/	.	4d\	.	4d/	.	4dd\	.	2r	.	2r	.	2ryy	2r	.	2r	.
4D/	.	4f\	.	(8b-/L	.	8bb-\L	.	.	.	.	.	.	.	.	.	.
.	.	.	.	8f/J)	.	8ff\J	.	.	.	.	.	.	.	.	.	.
=130	=130	=130	=130	=130	=130	=130	=130	=130	=130	=130	=130	=130	=130	=130	=130	=130
(<2E-X\	.	(8f#X\L	.	[2B-/	.	(8ff#X\L	.	2r	.	2r	.	2ryy	2r	.	2r	.
.	.	8g\)	.	.	.	8gg\)	.	.	.	.	.	.	.	.	.	.
.	.	8g'\	.	.	.	8gg\	.	.	.	.	.	.	.	.	.	.
.	.	8g'\J	.	.	.	8gg'\J	.	.	.	.	.	.	.	.	.	.
=131	=131	=131	=131	=131	=131	=131	=131	=131	=131	=131	=131	=131	=131	=131	=131	=131
2D\)	.	(8g\L	.	(<2B-/]	.	8gg\L	.	2r	.	2r	.	2ryy	2r	.	2r	.
.	.	8fn\)	.	.	.	8ffn\	.	.	.	.	.	.	.	.	.	.
.	.	8f'\	.	.	.	8ff\	.	.	.	.	.	.	.	.	.	.
.	.	8f'\J	.	.	.	8ff\J	.	.	.	.	.	.	.	.	.	.
=132	=132	=132	=132	=132	=132	=132	=132	=132	=132	=132	=132	=132	=132	=132	=132	=132
(2C/	.	(8f\L	.	(<2b-\)	.	8ff\L	.	2r	.	2r	.	2ryy	2r	.	2r	.
.	.	8en\)	.	.	.	8een\	.	.	.	.	.	.	.	.	.	.
.	.	8e'\	.	.	.	8ee\	.	.	.	.	.	.	.	.	.	.
.	.	8e'\J	.	.	.	8ee\J	.	.	.	.	.	.	.	.	.	.
=133	=133	=133	=133	=133	=133	=133	=133	=133	=133	=133	=133	=133	=133	=133	=133	=133
2En\	.	(8cc\L	.	(2g/)	.	8ccc\L	.	2r	.	2r	.	2ryy	2r	.	2r	.
.	.	8b-X\)	.	.	.	8bb-X\	.	.	.	.	.	.	.	.	.	.
.	.	8b-'\	.	.	.	8bb-\	.	.	.	.	.	.	.	.	.	.
.	.	8b-'\J	.	.	.	8bb-\J	.	.	.	.	.	.	.	.	.	.
=134	=134	=134	=134	=134	=134	=134	=134	=134	=134	=134	=134	=134	=134	=134	=134	=134
2F\	.	8b-\L	.	[2f/)	.	(8bb-\L	.	2r	.	2r	.	2ryy	2r	.	2r	.
.	.	8a\	.	.	.	8aa\)	.	.	.	.	.	.	.	.	.	.
.	.	8a\	.	.	.	8aa'\	.	.	.	.	.	.	.	.	.	.
.	.	8a\J	.	.	.	8aa'\J	.	.	.	.	.	.	.	.	.	.
!	!	!LO:LB:g=original	!	!	!	!LO:LB:g=original	!	!	!	!	!	!	!	!	!	!
=135	=135	=135	=135	=135	=135	=135	=135	=135	=135	=135	=135	=135	=135	=135	=135	=135
2A\)	.	8cc\L	.	4f/]	.	8ccc\L	.	2r	.	2r	.	2ryy	2r	.	2r	.
.	.	8a\	.	.	.	8aa\	.	.	.	.	.	.	.	.	.	.
.	.	8f\	.	4r	.	8ff\	.	.	.	.	.	.	.	.	.	.
.	.	8c\J	.	.	.	8cc\J	.	.	.	.	.	.	.	.	.	.
!LO:LB:g=original	!	!	!	!LO:LB:g=original	!	!	!	!	!	!	!	!	!	!	!	!
=136	=136	=136	=136	=136	=136	=136	=136	=136	=136	=136	=136	=136	=136	=136	=136	=136
4.B-X\	.	4d\	.	(8d/L	.	8dd\L	.	2r	.	2r	.	2ryy	2r	.	2r	.
.	.	.	.	8f#X/	.	8ff#X\	.	.	.	.	.	.	.	.	.	.
.	.	[4g\	.	8g/	.	8gg\	.	.	.	.	.	.	.	.	.	.
8G\	.	.	.	8b-X/J)	.	8bb-X\J	.	.	.	.	.	.	.	.	.	.
=137	=137	=137	=137	=137	=137	=137	=137	=137	=137	=137	=137	=137	=137	=137	=137	=137
4.A\	.	4g\]	.	(8c/L	.	8cc\L	.	2r	.	2r	.	2ryy	2r	.	2r	.
.	.	.	.	8en/	.	8een\	.	.	.	.	.	.	.	.	.	.
.	.	[4f\	.	8fn/	.	8ffn\	.	.	.	.	.	.	.	.	.	.
8F\	.	.	.	8a/J)	.	8aa\J	.	.	.	.	.	.	.	.	.	.
=138	=138	=138	=138	=138	=138	=138	=138	=138	=138	=138	=138	=138	=138	=138	=138	=138
4.G\	.	4f\]	.	8B-X/L	.	8b-X\L	.	2r	.	2r	.	2ryy	2r	.	2r	.
.	.	.	.	8d/	.	8dd\	.	.	.	.	.	.	.	.	.	.
.	.	4en\	.	8en/	.	8een\	.	.	.	.	.	.	.	.	.	.
8En\	.	.	.	8g/J	.	8gg\J	.	.	.	.	.	.	.	.	.	.
=139	=139	=139	=139	=139	=139	=139	=139	=139	=139	=139	=139	=139	=139	=139	=139	=139
4.F\	.	4.f\	.	8A/L	.	8a\L	.	2r	.	2r	.	2ryy	2r	.	2r	.
.	.	.	.	8c/	.	8cc\	.	.	.	.	.	.	.	.	.	.
.	.	.	.	8e/	.	8een\	.	.	.	.	.	.	.	.	.	.
8An\	.	8A/	.	8f/J	.	8ff\J	.	.	.	.	.	.	.	.	.	.
=140	=140	=140	=140	=140	=140	=140	=140	=140	=140	=140	=140	=140	=140	=140	=140	=140
.	.	.	.	8qqe/	.	8qqee/	.	.	.	.	.	.	.	.	.	.
4B-\	.	4B-/	.	4d/	.	4dd\	.	2r	.	2r	.	2ryy	2r	.	2r	.
4r	.	4r	.	8dd\L	.	8ddd\L	.	.	.	.	.	.	.	.	.	.
.	.	.	.	8cc\J	.	8ccc\J	.	.	.	.	.	.	.	.	.	.
=141	=141	=141	=141	=141	=141	=141	=141	=141	=141	=141	=141	=141	=141	=141	=141	=141
(4B-\	.	(2d\	.	8b-X/L	.	8bb-X\L	.	2r	.	2r	.	2ryy	2r	.	2r	.
.	.	.	.	8a/	.	8aa\	.	.	.	.	.	.	.	.	.	.
4Bn\)	.	.	.	8g/	.	8gg\	.	.	.	.	.	.	.	.	.	.
.	.	.	.	8f/J	.	8ff\J	.	.	.	.	.	.	.	.	.	.
=142	=142	=142	=142	=142	=142	=142	=142	=142	=142	=142	=142	=142	=142	=142	=142	=142
!	!LO:DY:b:t=for	!	!LO:DY:b:t=for	!LO:TX:t=P:problem=mixed beam	!LO:DY:b:t=for	!	!LO:DY:b:t=for	!	!LO:DY:b:t=p&colon;	!	!	!	!LO:N:vis=1	!	!LO:N:vis=1	!LO:DY:b:t=for
4.c\	f	8c\L)	f	16en/LL	f	16een\LL	f	[2c/	p	[<2cc\	.	2ryy	((<2ee\	.	((<2gg\	f
.	.	.	.	16ee\	.	16ccc\	.	.	.	.	.	.	.	.	.	.
.	.	16e\L	.	16ee\	.	16ccc\	.	.	.	.	.	.	.	.	.	.
.	.	16g\JJ	.	16ee\JJ	.	16ccc\JJ	.	.	.	.	.	.	.	.	.	.
*	*	*	*	*tremolo	*	*tremolo	*	*	*	*	*	*	*	*	*	*
.	.	8cc\L	.	16ee\LL	.	16ccc\LL	.	.	.	.	.	.	.	.	.	.
.	.	.	.	16ee\	.	16ccc\	.	.	.	.	.	.	.	.	.	.
8B-X\	.	8b-X\J	.	16ee\	.	16ccc\	.	.	.	.	.	.	.	.	.	.
.	.	.	.	16ee\JJ	.	16ccc\JJ	.	.	.	.	.	.	.	.	.	.
!	!	!	!	!	!	!LO:LB:g=original	!	!	!	!	!	!	!	!	!	!
=143	=143	=143	=143	=143	=143	=143	=143	=143	=143	=143	=143	=143	=143	=143	=143	=143
!	!	!	!	!	!	!	!	!	!	!	!	!	!LO:N:vis=1	!	!LO:N:vis=1	!
8A\L	.	4.a\	.	16ff\LL	.	16ccc\LL	.	2c/_	.	2cc\]	.	2ryy	(<2ff\)	.	(<2aa\)	.
.	.	.	.	16ff\	.	16ccc\	.	.	.	.	.	.	.	.	.	.
8c\	.	.	.	16ff\	.	16ccc\	.	.	.	.	.	.	.	.	.	.
.	.	.	.	16ff\	.	16ccc\	.	.	.	.	.	.	.	.	.	.
8A\	.	.	.	16ff\	.	16ccc\	.	.	.	.	.	.	.	.	.	.
.	.	.	.	16ff\	.	16ccc\	.	.	.	.	.	.	.	.	.	.
8F\J	.	8f\	.	16ff\	.	16ccc\	.	.	.	.	.	.	.	.	.	.
.	.	.	.	16ff\JJ	.	16ccc\JJ	.	.	.	.	.	.	.	.	.	.
=144	=144	=144	=144	=144	=144	=144	=144	=144	=144	=144	=144	=144	=144	=144	=144	=144
!	!	!	!	!	!	!	!	!	!	!	!	!	!LO:N:vis=1	!	!LO:N:vis=1	!
4C/	.	8c\L	.	16ee\LL	.	16ccc\LL	.	2c/_	.	[<2cc\	p	2ryy	(<2ee\)	.	(<2gg\)	.
.	.	.	.	16ee\	.	16ccc\	.	.	.	.	.	.	.	.	.	.
.	.	16e\L	.	16ee\	.	16ccc\	.	.	.	.	.	.	.	.	.	.
.	.	16g\JJ	.	16ee\	.	16ccc\	.	.	.	.	.	.	.	.	.	.
8.c\L	.	8cc\L	.	16ee\	.	16ccc\	.	.	.	.	.	.	.	.	.	.
.	.	.	.	16ee\	.	16ccc\	.	.	.	.	.	.	.	.	.	.
.	.	8b-X\J	.	16ee\	.	16ccc\	.	.	.	.	.	.	.	.	.	.
16B-X\Jk	.	.	.	16ee\JJ	.	16ccc\JJ	.	.	.	.	.	.	.	.	.	.
!LO:LB:g=original	!	!LO:LB:g=original	!	!	!	!	!	!	!	!	!	!	!	!	!	!
=145	=145	=145	=145	=145	=145	=145	=145	=145	=145	=145	=145	=145	=145	=145	=145	=145
!	!	!	!	!	!	!	!	!	!	!	!	!	!LO:N:vis=1	!	!LO:N:vis=1	!
8A\L	.	4.a\	.	16ff\LL	.	16ccc\LL	.	2c/_	.	2cc\_<	.	2ryy	(<2ff\))	.	(<2aa\))	.
.	.	.	.	16ff\	.	16ccc\	.	.	.	.	.	.	.	.	.	.
8c\	.	.	.	16ff\	.	16ccc\	.	.	.	.	.	.	.	.	.	.
.	.	.	.	16ff\	.	16ccc\	.	.	.	.	.	.	.	.	.	.
8A\	.	.	.	16ff\	.	16ccc\	.	.	.	.	.	.	.	.	.	.
.	.	.	.	16ff\	.	16ccc\	.	.	.	.	.	.	.	.	.	.
8F\J	.	8f\	.	16ff\	.	16ccc\	.	.	.	.	.	.	.	.	.	.
.	.	.	.	16ff\JJ	.	16ccc\JJ	.	.	.	.	.	.	.	.	.	.
!	!	!	!	!LO:LB:g=original	!	!	!	!	!	!LO:LB:g=original	!	!	!	!	!	!
=146	=146	=146	=146	=146	=146	=146	=146	=146	=146	=146	=146	=146	=146	=146	=146	=146
!LO:TX:t=P:problem=mixed beam	!	!	!	!	!	!	!	!	!	!	!	!	!	!	!	!
8C/L	.	8cc\L	.	4c/ 4g 4ee	.	4ccc\	.	4c/]	.	4cc\]	.	2ryy	4ee\)	.	4gg\)	.
8c\	.	8cc\	.	.	.	.	.	.	.	.	.	.	.	.	.	.
8G\	.	8g\	.	4c/ 4g 4ee	.	4ee\ 4ccc	.	4c/	.	4cc\	.	.	4ee\	.	4ccc\	.
8E\J	.	8e\J	.	.	.	.	.	.	.	.	.	.	.	.	.	.
!	!	!	!	!	!	!	!	!	!	!	!	!	!LO:LB:g=original	!	!	!
=147	=147	=147	=147	=147	=147	=147	=147	=147	=147	=147	=147	=147	=147	=147	=147	=147
2C/	.	2c/	.	2c/ 2g 2ee	.	2ee\ 2ccc	.	2c/	.	2cc\	.	2ryy	2ee\	.	2ccc\	.
=148	=148	=148	=148	=148	=148	=148	=148	=148	=148	=148	=148	=148	=148	=148	=148	=148
!	!	!	!	!	!LO:DY:b:t=pia	!	!LO:DY:b:t=pia	!LO:TX:a:t=19	!	!LO:TX:a:t=19	!	!	!LO:TX:a:t=8	!	!LO:TX:a:t=8	!
4r	.	4r	.	4.f/	p	4.a/	p	2r	.	2r	.	2ryy	2r	.	2r	.
!	!LO:DY:b:t=pia	!	!	!	!	!	!	!	!	!	!	!	!	!	!	!
4F\	p	4f\	.	.	.	.	.	.	.	.	.	.	.	.	.	.
!	!	!	!	!	!	!LO:TX:b:t=dolce	!	!	!	!	!	!	!	!	!	!
.	.	.	.	8g/	.	8b-X/	.	.	.	.	.	.	.	.	.	.
=149	=149	=149	=149	=149	=149	=149	=149	=149	=149	=149	=149	=149	=149	=149	=149	=149
!	!	!	!LO:DY:b:t=p&colon;	!	!	!	!	!	!	!	!	!	!	!	!	!
4c\	.	4cc\	p	8f/L	.	8a/L	.	2r	.	2r	.	2ryy	2r	.	2r	.
.	.	.	.	8en/J	.	8g/J	.	.	.	.	.	.	.	.	.	.
4C/	.	4c/	.	4e/	.	4g/	.	.	.	.	.	.	.	.	.	.
=150	=150	=150	=150	=150	=150	=150	=150	=150	=150	=150	=150	=150	=150	=150	=150	=150
4r	.	4r	.	4.g/	.	4.b-\	.	2r	.	2r	.	2ryy	2r	.	2r	.
4C/	.	4c\	.	.	.	.	.	.	.	.	.	.	.	.	.	.
.	.	.	.	8a/	.	8cc\	.	.	.	.	.	.	.	.	.	.
=151	=151	=151	=151	=151	=151	=151	=151	=151	=151	=151	=151	=151	=151	=151	=151	=151
4F\	.	2f\	.	8g/L	.	8b-/L	.	2r	.	2r	.	2ryy	2r	.	2r	.
.	.	.	.	8f/J	.	8a/J	.	.	.	.	.	.	.	.	.	.
4FF/	.	.	.	4f/	.	4a/	.	.	.	.	.	.	.	.	.	.
=152	=152	=152	=152	=152	=152	=152	=152	=152	=152	=152	=152	=152	=152	=152	=152	=152
(2B-X\	.	(<2d\	.	[2f/	.	8dd\L	.	2r	.	2r	.	2ryy	2r	.	2r	.
.	.	.	.	.	.	8b-\	.	.	.	.	.	.	.	.	.	.
.	.	.	.	.	.	8ff\	.	.	.	.	.	.	.	.	.	.
.	.	.	.	.	.	8dd\J	.	.	.	.	.	.	.	.	.	.
=153	=153	=153	=153	=153	=153	=153	=153	=153	=153	=153	=153	=153	=153	=153	=153	=153
4A\)	.	4c\)	.	4f/]	.	8cc/L	.	2r	.	2r	.	2ryy	2r	.	2r	.
.	.	.	.	.	.	8a/	.	.	.	.	.	.	.	.	.	.
4r	.	4r	.	4r	.	8g/	.	.	.	.	.	.	.	.	.	.
.	.	.	.	.	.	8f/J	.	.	.	.	.	.	.	.	.	.
!	!	!	!	!	!	!LO:LB:g=original	!	!	!	!	!	!	!	!	!	!
=154	=154	=154	=154	=154	=154	=154	=154	=154	=154	=154	=154	=154	=154	=154	=154	=154
4En\	.	[<2c\	.	4g/	.	8b-\L	.	2r	.	2r	.	2ryy	2r	.	2r	.
.	.	.	.	.	.	8gg\	.	.	.	.	.	.	.	.	.	.
4F\	.	.	.	4a/	.	8a\	.	.	.	.	.	.	.	.	.	.
.	.	.	.	.	.	8ff\J	.	.	.	.	.	.	.	.	.	.
=155	=155	=155	=155	=155	=155	=155	=155	=155	=155	=155	=155	=155	=155	=155	=155	=155
.	.	.	.	.	.	8qqff/	.	.	.	.	.	.	.	.	.	.
4C/	.	4c\]	.	4cc\	.	4een\	.	2r	.	2r	.	2ryy	2r	.	2r	.
4r	.	4r	.	4r	.	8dd\L	.	.	.	.	.	.	.	.	.	.
.	.	.	.	.	.	8cc\J	.	.	.	.	.	.	.	.	.	.
!LO:LB:g=original	!	!	!	!	!	!	!	!	!	!	!	!	!	!	!	!
=156	=156	=156	=156	=156	=156	=156	=156	=156	=156	=156	=156	=156	=156	=156	=156	=156
!	!	!	!	!	!	!	!	!	!	!	!	!	!	!	!LO:TX:b:t=dolce	!
4r	.	4r	.	(4.f/	.	4.a/	.	2r	.	2r	.	2ryy	4.ff\	.	4.aa\	.
4F\	.	4f\	.	.	.	.	.	.	.	.	.	.	.	.	.	.
!	!	!	!	!	!	!	!	!	!	!	!	!	!	!LO:DY:b:t=p&colon;	!	!
.	.	.	.	8g/)	.	8b-/	.	.	.	.	.	.	8gg\	p	8bb-\	p
=157	=157	=157	=157	=157	=157	=157	=157	=157	=157	=157	=157	=157	=157	=157	=157	=157
4c\	.	4cc\	.	8f/L	.	8a/L	.	2r	.	2r	.	2ryy	8ff\L	.	8aa\L	.
.	.	.	.	8en/J	.	8g/J	.	.	.	.	.	.	8ee\J	.	8gg\J	.
4C/	.	4c/	.	4e/	.	4g/	.	.	.	.	.	.	4ee\	.	4gg\	.
!	!	!LO:LB:g=original	!	!LO:LB:g=original	!	!	!	!	!	!	!	!	!	!	!	!
=158	=158	=158	=158	=158	=158	=158	=158	=158	=158	=158	=158	=158	=158	=158	=158	=158
!	!	!	!	!	!	!	!	!	!	!	!	!	!LO:N:vis=4	!	!	!
4r	.	4r	.	4.g/	.	4.b-X\	.	2r	.	2r	.	2ryy	4.gg\	.	4.bb-\	.
4C/	.	4c\	.	.	.	.	.	.	.	.	.	.	.	.	.	.
.	.	.	.	8a/	.	8cc\	.	.	.	.	.	.	8aa\	.	8ccc\	.
=159	=159	=159	=159	=159	=159	=159	=159	=159	=159	=159	=159	=159	=159	=159	=159	=159
4F\	.	4f\	.	8g/L	.	8b-/L	.	2r	.	2r	.	2ryy	8gg\L	.	8bb-\L	.
.	.	.	.	8f/J	.	8a/J	.	.	.	.	.	.	8ff\J	.	8aa\J	.
4FF/	.	4F/	.	4f/	.	4a/	.	.	.	.	.	.	4ff\	.	4aa\	.
=160	=160	=160	=160	=160	=160	=160	=160	=160	=160	=160	=160	=160	=160	=160	=160	=160
(2BB-X/	.	(<2d\	.	[2f/	.	(8d/L	.	2r	.	2r	.	2ryy	[2f/	.	(8dd\L	.
.	.	.	.	.	.	8B-/)	.	.	.	.	.	.	.	.	8b-\	.
.	.	.	.	.	.	8f'/	.	.	.	.	.	.	.	.	8ff\	.
.	.	.	.	.	.	8d'/J	.	.	.	.	.	.	.	.	8dd\J)	.
=161	=161	=161	=161	=161	=161	=161	=161	=161	=161	=161	=161	=161	=161	=161	=161	=161
4AA/)	.	4c\)	.	4f/]	.	4c/	.	2r	.	2r	.	2ryy	4f/]	.	8cc/L	.
.	.	.	.	.	.	.	.	.	.	.	.	.	.	.	8a/	.
4r	.	4r	.	4r	.	4r	.	.	.	.	.	.	4r	.	8g/	.
.	.	.	.	.	.	.	.	.	.	.	.	.	.	.	8f/J	.
=162	=162	=162	=162	=162	=162	=162	=162	=162	=162	=162	=162	=162	=162	=162	=162	=162
2BB-/	.	(<2d\	.	[2f/	.	(8d/L	.	2r	.	2r	.	2ryy	2f/	.	8dd/L	.
.	.	.	.	.	.	8B-/)	.	.	.	.	.	.	.	.	8b-/	.
.	.	.	.	.	.	8f'/	.	.	.	.	.	.	.	.	8ff/	.
.	.	.	.	.	.	8d'/J	.	.	.	.	.	.	.	.	8dd/J	.
!	!	!	!	!	!	!	!	!	!	!	!	!	!	!	!LO:LB:g=original	!
=163	=163	=163	=163	=163	=163	=163	=163	=163	=163	=163	=163	=163	=163	=163	=163	=163
!	!	!	!	!	!	!	!	!	!	!	!	!	!	!	!LO:TX:t=P:problem=zapis łuku niejednoznaczny	!
4AA/	.	4c\)	.	4f/]	.	4c/	.	2r	.	2r	.	2ryy	4f/	.	(8cc/L	.
.	.	.	.	.	.	.	.	.	.	.	.	.	.	.	8a/	.
4r	.	4r	.	4r	.	4r	.	.	.	.	.	.	4r	.	8g/)	.
.	.	.	.	.	.	.	.	.	.	.	.	.	.	.	8f/J	.
!	!	!	!	!	!	!LO:LB:g=original	!	!	!	!	!	!	!	!	!	!
=164	=164	=164	=164	=164	=164	=164	=164	=164	=164	=164	=164	=164	=164	=164	=164	=164
(2B-\	.	(<2d\	.	[2f/	.	8d/L	.	2r	.	2r	.	2ryy	[2f/	.	8dd\L	.
.	.	.	.	.	.	8B-/	.	.	.	.	.	.	.	.	8b-\	.
.	.	.	.	.	.	8f/	.	.	.	.	.	.	.	.	8ff\	.
.	.	.	.	.	.	8d/J	.	.	.	.	.	.	.	.	8dd\J	.
=165	=165	=165	=165	=165	=165	=165	=165	=165	=165	=165	=165	=165	=165	=165	=165	=165
4A\	.	4c\)	.	4.f/]	.	8c/L	.	2r	.	2r	.	2ryy	4f/]	.	8cc\L	.
.	.	.	.	.	.	8f/	.	.	.	.	.	.	.	.	8ff\	.
!	!	!	!	!	!	!	!	!	!	!	!	!	!LO:TX:t=P:problem=nieczytelna 4r	!	!	!
4B-X\)	.	8r	.	.	.	8.d/	.	.	.	.	.	.	4r	.	8.dd\	.
.	.	8B-/	.	8d/	.	.	.	.	.	.	.	.	.	.	.	.
.	.	.	.	.	.	16b-/Jk	.	.	.	.	.	.	.	.	16bb-\Jk	.
=166	=166	=166	=166	=166	=166	=166	=166	=166	=166	=166	=166	=166	=166	=166	=166	=166
!	!	!	!	!	!	!	!	!	!	!	!	!	!	!	!LO:TX:a:t=a	!
4c\	.	4c\	.	8c/L	.	8a/L	.	2r	.	2r	.	2ryy	8cc\L	.	8aa\L	.
!	!	!	!	!	!	!	!	!	!	!	!	!	!	!	!LO:TX:a:t=g	!
.	.	.	.	8B-/	.	8g/	.	.	.	.	.	.	8b-X\	.	8gg\	.
4C/	.	4C/	.	8A/	.	8f/	.	.	.	.	.	.	8a\	.	8ff\	.
.	.	.	.	8G/J	.	8e/J	.	.	.	.	.	.	8g\J	.	8ee\J	.
!	!	!	!	!	!	!	!	!	!	!	!	!	!LO:LB:g=original	!	!	!
=167	=167	=167	=167	=167	=167	=167	=167	=167	=167	=167	=167	=167	=167	=167	=167	=167
*	*	*tremolo	*	*Xtremolo	*	*Xtremolo	*	*	*	*	*	*	*	*	*	*
!	!LO:DY:b:t:=cres.	!	!LO:DY:b:t=cres	!	!LO:DY:b:t=crescendo	!	!LO:DY:b:t=crescendo	!	!	!	!	!	!	!	!	!
[2F\	<	8F/L	<	8A/L	<	8f/L	<	2F/	<	[2f\	<	2ryy	4a/	.	4ff\	.
.	.	8F/	.	8A/	[	8f/	[	.	.	.	.	.	.	.	.	.
.	.	8F/	.	8A/	.	8f/	.	.	.	.	.	.	4r	.	4r	.
.	.	8F/J	.	8A/J	.	8f/J	.	.	.	.	.	.	.	.	.	.
!	!	!	!	!	!	!	!	!LO:LB:g=original	!	!	!	!	!	!	!	!
=168	=168	=168	=168	=168	=168	=168	=168	=168	=168	=168	=168	=168	=168	=168	=168	=168
!	!	!	!	!	!	!	!	!	!	!	!	!	!LO:TX:a:t=3	!	!LO:TX:a:t=3	!
2F\_<	.	8F/L	.	(8G/L	.	(8e/L	.	[2F/	.	2f\_	.	2ryy	2r	.	2r	.
.	.	8F/	.	8B-X/)	.	8g/)	.	.	.	.	.	.	.	.	.	.
.	.	8F/	.	8B-'/	.	8g'/	.	.	.	.	.	.	.	.	.	.
.	.	8F/J	.	8B-'/J	.	8g'/J	.	.	.	.	.	.	.	.	.	.
!	!	!	!	!LO:LB:g=original	!	!	!	!	!	!	!	!	!	!	!	!
=169	=169	=169	=169	=169	=169	=169	=169	=169	=169	=169	=169	=169	=169	=169	=169	=169
2F\_<	.	8F/L	.	(8A/L	.	(8f/L	.	2F/_	.	2f\_	.	2ryy	2r	.	2r	.
.	.	8F/	.	8f/)	.	8a/)	.	.	.	.	.	.	.	.	.	.
.	.	8F/	.	8f'/	.	8a'/	.	.	.	.	.	.	.	.	.	.
.	.	8F/J	.	8f'/J	.	8a'/J	.	.	.	.	.	.	.	.	.	.
!LO:LB:g=original	!	!	!	!	!	!	!	!	!	!	!	!	!	!	!	!
=170	=170	=170	=170	=170	=170	=170	=170	=170	=170	=170	=170	=170	=170	=170	=170	=170
2F\_<	.	8F/L	.	(8e/L	.	(8g/L	.	2F/]	.	2f\_	.	2ryy	2r	.	2r	.
.	.	8F/	.	8g/)	.	8b-/)	.	.	.	.	.	.	.	.	.	.
.	.	8F/	.	8g'/	.	8b-'/	.	.	.	.	.	.	.	.	.	.
!	!	!	!	!LO:TX:b:i:t=il	!	!	!	!	!	!	!	!	!	!	!	!
.	.	8F/J	.	8g'/J	.	8b-'/J	.	.	.	.	.	.	.	.	.	.
!	!	!LO:PB:g=original	!	!	!	!	!	!	!	!	!	!	!	!	!	!
=171	=171	=171	=171	=171	=171	=171	=171	=171	=171	=171	=171	=171	=171	=171	=171	=171
*Xtremolo	*	*	*	*	*	*	*	*	*	*	*	*	*	*	*	*
!LO:TX:b:i:t=il	!	!	!LO:DY:b:t=for	!	!LO:DY:b:t=for	!	!	!	!	!	!	!	!	!	!	!
8F\L]	.	8f\L	f	16f/LL	f	16a\LL	.	4F/	.	4f\]	.	2ryy	4r	.	4r	.
.	.	.	.	16a/	.	16ff\	.	.	.	.	.	.	.	.	.	.
!	!LO:DY:b:t=for	!	!	!	!	!	!	!	!	!	!	!	!	!	!	!
8F\	f	8f\	.	16a/	.	16ff\	.	.	.	.	.	.	.	.	.	.
!	!	!	!	!	!	!LO:TX:b:i:t=rin	!	!	!	!	!	!	!	!	!	!
.	.	.	.	16a/JJ	.	16ff\JJ	.	.	.	.	.	.	.	.	.	.
*	*	*	*	*tremolo	*	*tremolo	*	*	*	*	*	*	*	*	*	*
!	!	!	!	!	!	!	!LO:DY:b:t=for	!	!	!	!	!	!LO:TX:t=P:problem=brak kreski taktowej	!LO:DY:b:t=for	!	!LO:DY:b:t=for
8F\	.	8f\	.	16a/LL	.	16ff\LL	f	4r	.	4r	.	.	4a/	f	4ff\	f
.	.	.	.	16a/	.	16ff\	.	.	.	.	.	.	.	.	.	.
8F\J	.	8f\J	.	16a/	.	16ff\	.	.	.	.	.	.	.	.	.	.
.	.	.	.	16a/JJ	.	16ff\JJ	.	.	.	.	.	.	.	.	.	.
=172	=172	=172	=172	=172	=172	=172	=172	=172	=172	=172	=172	=172	=-172	=-172	=172	=172
*tremolo	*	*	*	*	*	*Xtremolo	*	*	*	*	*	*	*	*	*	*
!	!	!	!	!	!	!	!	!	!LO:DY:b:t=for	!	!LO:DY:b:t=for	!	!	!	!	!
8F\L	.	8f\L	.	16g/LL	.	16ee\LL	.	4F/	f	4f\	f	2ryy	4g/	.	4ee\	.
.	.	.	.	16b-X/	.	16ee\	.	.	.	.	.	.	.	.	.	.
8F\	.	8f\	.	16b-/	.	16gg\	.	.	.	.	.	.	.	.	.	.
.	.	.	.	16b-/JJ	.	16gg\JJ	.	.	.	.	.	.	.	.	.	.
*	*	*	*	*	*	*tremolo	*	*	*	*	*	*	*	*	*	*
8F\	.	8f\	.	16b-/LL	.	16gg\LL	.	4r	.	4r	.	.	4b-/	.	4gg\	.
.	.	.	.	16b-/	.	16gg\	.	.	.	.	.	.	.	.	.	.
8F\J	.	8f\J	.	16b-/	.	16gg\	.	.	.	.	.	.	.	.	.	.
.	.	.	.	16b-/JJ	.	16gg\JJ	.	.	.	.	.	.	.	.	.	.
!	!	!	!	!	!	!LO:LB:g=original	!	!	!	!	!	!	!	!	!	!
=173	=173	=173	=173	=173	=173	=173	=173	=173	=173	=173	=173	=173	=173	=173	=173	=173
*	*	*	*	*Xtremolo	*	*Xtremolo	*	*	*	*	*	*	*	*	*	*
8F\L	.	8f\L	.	16a\LL	.	16ff\LL	.	4F/	.	4f\	.	2ryy	4a/	.	4ff\	.
.	.	.	.	16a\	.	16ff\	.	.	.	.	.	.	.	.	.	.
8F\	.	8f\	.	16ff\	.	16aa\	.	.	.	.	.	.	.	.	.	.
.	.	.	.	16ff\JJ	.	16aa\JJ	.	.	.	.	.	.	.	.	.	.
*	*	*	*	*tremolo	*	*tremolo	*	*	*	*	*	*	*	*	*	*
8F\	.	8f\	.	16ff\LL	.	16aa\LL	.	4r	.	4r	.	.	4ff\	.	4aa\	.
.	.	.	.	16ff\	.	16aa\	.	.	.	.	.	.	.	.	.	.
8F\J	.	8f\J	.	16ff\	.	16aa\	.	.	.	.	.	.	.	.	.	.
.	.	.	.	16ff\JJ	.	16aa\JJ	.	.	.	.	.	.	.	.	.	.
=174	=174	=174	=174	=174	=174	=174	=174	=174	=174	=174	=174	=174	=174	=174	=174	=174
8F\L	.	8f\L	.	16ee\LL	.	16gg\LL	.	4F/	.	4f\	.	2ryy	4ee\	.	4gg\	.
.	.	.	.	16gg\	.	16bb-\	.	.	.	.	.	.	.	.	.	.
8F\	.	8f\	.	16gg\	.	16bb-\	.	.	.	.	.	.	.	.	.	.
.	.	.	.	16gg\JJ	.	16bb-\JJ	.	.	.	.	.	.	.	.	.	.
8F\	.	8f\	.	16gg\LL	.	16bb-\LL	.	4r	.	4r	.	.	4gg\	.	4bb-X\	.
.	.	.	.	16gg\	.	16bb-\	.	.	.	.	.	.	.	.	.	.
8F\J	.	8f\J	.	16gg\	.	16bb-\	.	.	.	.	.	.	.	.	.	.
.	.	.	.	16gg\JJ	.	16bb-\JJ	.	.	.	.	.	.	.	.	.	.
*	*	*	*	*	*	*Xtremolo	*	*	*	*	*	*	*	*	*	*
*	*	*	*	*Xtremolo	*	*	*	*	*	*	*	*	*	*	*	*
*	*	*Xtremolo	*	*	*	*	*	*	*	*	*	*	*	*	*	*
*Xtremolo	*	*	*	*	*	*	*	*	*	*	*	*	*	*	*	*
=175	=175	=175	=175	=175	=175	=175	=175	=175	=175	=175	=175	=175	=175	=175	=175	=175
!	!LO:DY:b:t=fortiſ&colon;	!	!LO:DY:b:t=fortiſ	!	!LO:DY:b:t=fortiſ&colon;	!	!LO:DY:b:t=for&colon;	!	!	!	!LO:DY:b:t=fortiſ&colon;	!	!	!	!	!
4F\	ff	4f\	ff	16ff\LL	ff	16aa\LL	f	4F/	.	4f\	ff	2ryy	4ff\	.	4aa\	.
.	.	.	.	16gg\	.	16bb-\	.	.	.	.	.	.	.	.	.	.
.	.	.	.	16aa\	.	16ccc\	.	.	.	.	.	.	.	.	.	.
.	.	.	.	16gg\JJ	.	16bb-\JJ	.	.	.	.	.	.	.	.	.	.
4r	.	4r	.	16ff\LL	.	16aa\LL	.	4r	.	4r	.	.	4r	.	4r	.
.	.	.	.	16gg\	.	16bb-\	.	.	.	.	.	.	.	.	.	.
.	.	.	.	16aa\	.	16ccc\	.	.	.	.	.	.	.	.	.	.
.	.	.	.	16gg\JJ	.	16bb-\JJ	.	.	.	.	.	.	.	.	.	.
!	!	!	!	!	!	!	!	!	!	!LO:LB:g=original	!	!	!	!	!	!
=176	=176	=176	=176	=176	=176	=176	=176	=176	=176	=176	=176	=176	=176	=176	=176	=176
8r	.	8r	.	4ff\	.	4aa\	.	8r	.	8r	.	2ryy	8r	.	8r	.
!	!	!	!	!	!	!	!	!	!LO:DY:b:t=forti	!	!	!	!	!LO:DY:b:t=for	!	!
8F\L	.	8f\L	.	.	.	.	.	16F/LL	ff	16f'\LL	.	.	16a/LL	f	16ff\LL	.
.	.	.	.	.	.	.	.	16F/JJ	.	16f'\JJ	.	.	16a/JJ	.	16ff\JJ	.
8C\	.	8c\	.	4r	.	4r	.	8F/L	.	8f\L	.	.	8a/L	.	8ff\L	.
8AA\J	.	8A\J	.	.	.	.	.	8F/J	.	8f\J	.	.	8a/J	.	8ff\J	.
!	!	!	!	!LO:LB:g=original	!	!	!	!LO:LB:g=original	!	!	!	!	!	!	!	!
=177	=177	=177	=177	=177	=177	=177	=177	=177	=177	=177	=177	=177	=177	=177	=177	=177
4FF/	.	4F/	.	16ff|\LL	.	16aa|\LL	.	4F/	.	4f\	.	2ryy	4a/	.	4ff\	.
.	.	.	.	16gg|\	.	16bb-|\	.	.	.	.	.	.	.	.	.	.
.	.	.	.	16aa|\	.	16ccc|\	.	.	.	.	.	.	.	.	.	.
.	.	.	.	16gg|\JJ	.	16bb-|\JJ	.	.	.	.	.	.	.	.	.	.
4r	.	4r	.	16ff|\LL	.	16aa|\LL	.	4r	.	4r	.	.	4r	.	4r	.
.	.	.	.	16gg|\	.	16bb-|\	.	.	.	.	.	.	.	.	.	.
.	.	.	.	16aa|\	.	16ccc|\	.	.	.	.	.	.	.	.	.	.
.	.	.	.	16gg|\JJ	.	16bb-\JJ	.	.	.	.	.	.	.	.	.	.
=178	=178	=178	=178	=178	=178	=178	=178	=178	=178	=178	=178	=178	=178	=178	=178	=178
8r	.	8r	.	4ff\	.	4aa\	.	8r	.	8r	.	2ryy	8r	.	8r	.
8F\L	.	8f\L	.	.	.	.	.	16F/LL	.	16f\LL	.	.	16a/LL	.	16ff\LL	.
.	.	.	.	.	.	.	.	16F/JJ	.	16f\JJ	.	.	16a/JJ	.	16ff\JJ	.
8C\	.	8c\	.	4r	.	4r	.	8F/L	.	8f\L	.	.	8a/L	.	8ff\L	.
8AA\J	.	8A\J	.	.	.	.	.	8F/J	.	8f\J	.	.	8a/J	.	8ff\J	.
!	!	!	!	!	!	!	!	!	!	!	!	!	!	!	!LO:LB:g=original	!
=179	=179	=179	=179	=179	=179	=179	=179	=179	=179	=179	=179	=179	=179	=179	=179	=179
4FF/	.	4F/	.	16ff|\LL	.	16aa|\LL	.	4F/	.	4f\	.	2ryy	4a/	.	4ff\	.
.	.	.	.	16gg|\	.	16bb-|\	.	.	.	.	.	.	.	.	.	.
.	.	.	.	16aa|\	.	16ccc|\	.	.	.	.	.	.	.	.	.	.
.	.	.	.	16gg|\JJ	.	16bb-|\JJ	.	.	.	.	.	.	.	.	.	.
4r	.	4r	.	16ff|\LL	.	16aa|\LL	.	4r	.	4r	.	.	4r	.	4r	.
.	.	.	.	16gg|\	.	16bb-|\	.	.	.	.	.	.	.	.	.	.
.	.	.	.	16aa|\	.	16ccc|\	.	.	.	.	.	.	.	.	.	.
.	.	.	.	16gg|\JJ	.	16bb-|\JJ	.	.	.	.	.	.	.	.	.	.
!LO:LB:g=original	!	!	!	!	!	!LO:LB:g=original	!	!	!	!	!	!	!	!	!	!
=180	=180	=180	=180	=180	=180	=180	=180	=180	=180	=180	=180	=180	=180	=180	=180	=180
4FF/	.	4F/ 4c	.	16ff|\LL	.	16aa|\LL	.	4F/	.	4f\	.	2ryy	4a/	.	4ff\	.
.	.	.	.	16gg|\	.	16bb-|\	.	.	.	.	.	.	.	.	.	.
.	.	.	.	16aa|\	.	16ccc|\	.	.	.	.	.	.	.	.	.	.
.	.	.	.	16gg|\JJ	.	16bb-|\JJ	.	.	.	.	.	.	.	.	.	.
4r	.	4r	.	16ff|\LL	.	16aa|\LL	.	4r	.	4r	.	.	4r	.	4r	.
.	.	.	.	16gg|\	.	16bb-|\	.	.	.	.	.	.	.	.	.	.
.	.	.	.	16aa|\	.	16ccc|\	.	.	.	.	.	.	.	.	.	.
.	.	.	.	16gg|\JJ	.	16bb-|\JJ	.	.	.	.	.	.	.	.	.	.
!	!	!LO:LB:g=original	!	!	!	!	!	!	!	!	!	!	!LO:LB:g=original	!	!	!
=181	=181	=181	=181	=181	=181	=181	=181	=181	=181	=181	=181	=181	=181	=181	=181	=181
!LO:TX:t=P:problem=mixed beam	!	!	!	!	!	!	!	!	!	!	!	!	!	!	!	!
8FF/L	.	4F/ 4c	.	4ff\	.	4aa\	.	4F/	.	4f\	.	2ryy	4a/	.	4ff\	.
8F\	.	.	.	.	.	.	.	.	.	.	.	.	.	.	.	.
8C\	.	4F/ 4c	.	4f/ 4cc 4ff	.	4f/ 4cc 4aa	.	4F/	.	4f\	.	.	4a/	.	4ff\	.
8AA\J	.	.	.	.	.	.	.	.	.	.	.	.	.	.	.	.
=182	=182	=182	=182	=182	=182	=182	=182	=182	=182	=182	=182	=182	=182	=182	=182	=182
!	!	!	!	!LO:TX:b:t=Fine	!	!	!	!LO:TX:b:t=Fine	!	!LO:TX:b:t=Fine	!	!	!LO:TX:a:t=Fine	!	!LO:TX:b:t=Fine	!
2FF/	.	2F/ 2c	.	2f/ 2cc 2ff	.	2f/ 2cc 2aa	.	2F/	.	2f\	.	2ryy	2a/	.	2ff\	.
=:|!	=:|!	=:|!	=:|!	=:|!	=:|!	=:|!	=:|!	=:|!	=:|!	=:|!	=:|!	=:|!	=:|!	=:|!	=:|!	=:|!
*-	*-	*-	*-	*-	*-	*-	*-	*-	*-	*-	*-	*-	*-	*-	*-	*-
!!!RDF**kern: | = vertical stroke
!!!RDF**kern: < = below
!!!RDF**kern: > = above
!!!system-decoration: [(s1,s2,s3)][(s4,s5)][(s6,s7,s8,s9)]
!!!AIN: 4 empty 2 oboe 1 viola 2 violn
!!!ENC: Katarzyna Serwa
!!!END: 2020-09-17
!!!ENC: Urszula Świątek
!!!END: 2022-01-27
